;FLAVOR:Marlin
;TIME:9081
;Filament used: 3.15195m
;Layer height: 0.16
;MINX:88.48
;MINY:106.958
;MINZ:0.2
;MAXX:211.522
;MAXY:193.543
;MAXZ:6.44
;TARGET_MACHINE.NAME:Creality CR-10
;Generated with Cura_SteamEngine 5.7.0
M104 S228
M105
M109 S228
M82 ;absolute extrusion mode
M201 X500.00 Y500.00 Z100.00 E5000.00 ;Setup machine max acceleration
M203 X500.00 Y500.00 Z10.00 E50.00 ;Setup machine max feedrate
M204 P500.00 R1000.00 T500.00 ;Setup Print/Retract/Travel acceleration
M205 X8.00 Y8.00 Z0.40 E5.00 ;Setup Jerk
M220 S100 ;Reset Feedrate
M221 S100 ;Reset Flowrate

G28 ;Home

G92 E0 ;Reset Extruder
G1 Z2.0 F3000 ;Move Z Axis up
G1 X10.1 Y20 Z0.28 F5000.0 ;Move to start position
G1 X10.1 Y200.0 Z0.28 F1500.0 E15 ;Draw the first line
G1 X10.4 Y200.0 Z0.28 F5000.0 ;Move to side a little
G1 X10.4 Y20 Z0.28 F1500.0 E30 ;Draw the second line
G92 E0 ;Reset Extruder
G1 Z2.0 F3000 ;Move Z Axis up

G92 E0
G92 E0
G1 F1500 E-6.5
;LAYER_COUNT:52
;LAYER:0
M107
G0 F6000 X115.78 Y110.767 Z0.2
;TYPE:SKIRT
G1 F1500 E0
G1 F1200 X116.514 Y110.04 E0.03436
G1 X116.988 Y109.639 E0.05501
G1 X117.329 Y109.366 E0.06954
G1 X118.116 Y108.792 E0.10194
G1 X118.889 Y108.326 E0.13196
G1 X119.829 Y107.867 E0.16675
G1 X120.74 Y107.522 E0.19915
G1 X121.676 Y107.259 E0.23149
G1 X122.563 Y107.089 E0.26153
G1 X123.863 Y106.973 E0.30494
G1 X124.518 Y106.959 E0.32673
G1 X128.493 Y106.958 E0.45894
G1 X129.377 Y106.971 E0.48834
G1 X130.348 Y107.03 E0.5207
G1 X131.312 Y107.176 E0.55313
G1 X132.241 Y107.401 E0.58492
G1 X132.698 Y107.544 E0.60084
G1 X134.559 Y108.185 E0.66631
G1 X136.95 Y108.951 E0.74982
G1 X139.363 Y109.651 E0.83338
G1 X141.787 Y110.278 E0.91666
G1 X144.259 Y110.844 E1.001
G1 X146.74 Y111.339 E1.08515
G1 X149.205 Y111.759 E1.16832
G1 X151.678 Y112.109 E1.25139
G1 X154.197 Y112.392 E1.3357
G1 X156.721 Y112.606 E1.41995
G1 X159.203 Y112.743 E1.50263
G1 X161.738 Y112.812 E1.58697
G1 X164.224 Y112.81 E1.66966
G1 X166.79 Y112.735 E1.75504
G1 X169.285 Y112.591 E1.83816
G1 X172.479 Y112.313 E1.94479
G1 X173.473 Y112.246 E1.97793
G1 X173.941 Y112.227 E1.99351
G1 X174.624 Y112.22 E2.01623
G1 X175.623 Y112.241 E2.04946
G1 X176.407 Y112.28 E2.07557
G1 X177.208 Y112.357 E2.10233
G1 X178.057 Y112.472 E2.13083
G1 X178.799 Y112.595 E2.15584
G1 X179.577 Y112.753 E2.18225
G1 X180.091 Y112.879 E2.19985
G1 X180.938 Y113.108 E2.22903
G1 X181.589 Y113.309 E2.25169
G1 X182.543 Y113.639 E2.28527
G1 X183.3 Y113.924 E2.31217
G1 X184.138 Y114.287 E2.34255
G1 X184.741 Y114.58 E2.36485
G1 X185.422 Y114.932 E2.39034
G1 X186.01 Y115.264 E2.4128
G1 X187.141 Y115.954 E2.45687
G1 X187.745 Y116.35 E2.48089
G1 X189.702 Y117.666 E2.55933
G1 X191.863 Y119.032 E2.64436
G1 X194.007 Y120.304 E2.72727
G1 X196.21 Y121.526 E2.81106
G1 X198.414 Y122.672 E2.89369
G1 X200.743 Y123.797 E2.97971
G1 X202.922 Y124.783 E3.05926
G1 X203.788 Y125.226 E3.09161
G1 X204.611 Y125.742 E3.12392
G1 X205.306 Y126.263 E3.15281
G1 X206.225 Y127.013 E3.19226
G1 X206.95 Y127.663 E3.22465
G1 X207.591 Y128.349 E3.25588
G1 X208.192 Y129.115 E3.28826
G1 X208.742 Y129.962 E3.32185
G1 X209.195 Y130.822 E3.35418
G1 X209.572 Y131.72 E3.38657
G1 X209.849 Y132.58 E3.41662
G1 X210.078 Y133.6 E3.45139
G1 X210.205 Y134.562 E3.48367
G1 X210.247 Y135.389 E3.51121
G1 X210.287 Y138.832 E3.62573
G1 X210.39 Y141.4 E3.71121
G1 X210.559 Y143.881 E3.79392
G1 X210.8 Y146.372 E3.87716
G1 X211.117 Y148.889 E3.96154
G1 X211.396 Y150.788 E4.02537
G1 X211.507 Y152.061 E4.06788
G1 X211.522 Y152.718 E4.08973
G1 X211.521 Y154.839 E4.16028
G1 X211.509 Y155.568 E4.18453
G1 X211.461 Y156.436 E4.21344
G1 X211.224 Y158.63 E4.28684
G1 X211.005 Y161.164 E4.37143
G1 X210.865 Y163.667 E4.45481
G1 X210.792 Y166.206 E4.5393
G1 X210.792 Y168.718 E4.62285
G1 X210.863 Y171.224 E4.70623
G1 X211.005 Y173.719 E4.78935
G1 X211.22 Y176.259 E4.87413
G1 X211.45 Y178.38 E4.94509
G1 X211.507 Y179.216 E4.97296
G1 X211.522 Y179.873 E4.99482
G1 X211.521 Y181.943 E5.06367
G1 X211.51 Y182.706 E5.08905
G1 X211.453 Y183.679 E5.12146
G1 X211.308 Y184.642 E5.15385
G1 X211.079 Y185.588 E5.18623
G1 X210.768 Y186.512 E5.21865
G1 X210.376 Y187.403 E5.25103
G1 X209.908 Y188.255 E5.28336
G1 X209.386 Y189.036 E5.3146
G1 X208.753 Y189.821 E5.34814
G1 X208.128 Y190.472 E5.37816
G1 X207.339 Y191.16 E5.41298
G1 X206.579 Y191.71 E5.44418
G1 X205.712 Y192.227 E5.47776
G1 X204.834 Y192.649 E5.51016
G1 X203.923 Y192.991 E5.54252
G1 X202.984 Y193.252 E5.57494
G1 X202.018 Y193.43 E5.60761
G1 X200.867 Y193.528 E5.64603
G1 X200.192 Y193.543 E5.66848
G1 X190.946 Y193.542 E5.97601
G1 X190.213 Y193.53 E6.00039
G1 X189.241 Y193.471 E6.03278
G1 X188.278 Y193.325 E6.06517
G1 X187.364 Y193.104 E6.09645
G1 X186.337 Y192.754 E6.13254
G1 X185.277 Y192.332 E6.17048
G1 X182.902 Y191.417 E6.25514
G1 X180.514 Y190.574 E6.33936
G1 X178.126 Y189.807 E6.42279
G1 X175.726 Y189.109 E6.50592
G1 X173.272 Y188.472 E6.59024
G1 X170.8 Y187.903 E6.67461
G1 X168.337 Y187.409 E6.75816
G1 X165.865 Y186.987 E6.84157
G1 X163.392 Y186.635 E6.92465
G1 X160.907 Y186.354 E7.00783
G1 X158.354 Y186.136 E7.09305
G1 X155.858 Y185.996 E7.1762
G1 X153.332 Y185.925 E7.26025
G1 X150.842 Y185.925 E7.34307
G1 X148.315 Y185.997 E7.42715
G1 X146.602 Y186.106 E7.48424
G1 X146.303 Y186.112 E7.49419
G1 X145.142 Y186.18 E7.53287
G1 X144.49 Y186.202 E7.55457
G1 X141.5 Y186.205 E7.65401
G1 X140.619 Y186.192 E7.68332
G1 X137.598 Y186.103 E7.78384
G1 X135.131 Y186.103 E7.86589
G1 X132.592 Y186.176 E7.95038
G1 X130.089 Y186.318 E8.03376
G1 X127.602 Y186.531 E8.11678
G1 X126.156 Y186.703 E8.16521
G1 X125.752 Y186.733 E8.17869
G1 X124.683 Y186.855 E8.21447
G1 X123.772 Y186.919 E8.24485
G1 X123.148 Y186.932 E8.26561
G1 X120.267 Y186.931 E8.36143
G1 X119.499 Y186.918 E8.38698
G1 X118.235 Y186.82 E8.42914
G1 X115.861 Y186.487 E8.50888
G1 X113.412 Y186.209 E8.59085
G1 X110.893 Y185.993 E8.67494
G1 X108.377 Y185.852 E8.75876
G1 X105.872 Y185.78 E8.84211
G1 X102.32 Y185.798 E8.96025
G1 X101.209 Y185.815 E8.99721
G1 X100.243 Y185.806 E9.02934
G1 X99.271 Y185.751 E9.06172
G1 X98.308 Y185.608 E9.0941
G1 X97.36 Y185.381 E9.12652
G1 X96.437 Y185.071 E9.1589
G1 X95.544 Y184.68 E9.19133
G1 X94.691 Y184.213 E9.22367
G1 X93.881 Y183.671 E9.25609
G1 X93.122 Y183.061 E9.28848
G1 X92.447 Y182.412 E9.31962
G1 X91.857 Y181.744 E9.34926
G1 X91.437 Y181.224 E9.37149
G1 X90.956 Y180.581 E9.3982
G1 X90.419 Y179.803 E9.42964
G1 X89.904 Y178.976 E9.46205
G1 X89.465 Y178.107 E9.49443
G1 X89.103 Y177.203 E9.52682
G1 X88.822 Y176.271 E9.5592
G1 X88.637 Y175.387 E9.58923
G1 X88.515 Y174.356 E9.62376
G1 X88.488 Y173.617 E9.64836
G1 X88.48 Y170.655 E9.74688
G1 X88.491 Y169.841 E9.77395
G1 X88.55 Y168.868 E9.80637
G1 X88.697 Y167.907 E9.83871
G1 X88.928 Y166.959 E9.87116
G1 X89.241 Y166.039 E9.90348
G1 X89.622 Y165.173 E9.93495
G1 X90.274 Y164.027 E9.97881
G1 X90.629 Y163.485 E10.00035
G1 X91.965 Y161.501 E10.07991
G1 X93.309 Y159.377 E10.16351
G1 X94.582 Y157.231 E10.2465
G1 X95.812 Y155.023 E10.33056
G1 X96.982 Y152.771 E10.41497
G1 X98.051 Y150.563 E10.49656
G1 X99.111 Y148.206 E10.58252
G1 X100.052 Y145.947 E10.66391
G1 X100.989 Y143.502 E10.751
G1 X101.805 Y141.183 E10.83277
G1 X102.068 Y140.352 E10.86176
G1 X102.479 Y139.118 E10.90502
G1 X102.829 Y138.211 E10.93735
G1 X103.237 Y137.374 E10.96832
G1 X103.519 Y136.886 E10.98707
G1 X103.968 Y136.151 E11.01571
G1 X105.285 Y133.915 E11.10203
G1 X106.496 Y131.724 E11.18529
G1 X107.67 Y129.448 E11.27047
G1 X108.74 Y127.222 E11.35261
G1 X109.766 Y124.922 E11.43638
G1 X110.75 Y122.536 E11.52222
G1 X111.629 Y120.223 E11.60452
G1 X112.444 Y117.879 E11.68706
G1 X113.387 Y114.884 E11.79149
G1 X113.71 Y114.002 E11.82273
G1 X114.139 Y113.09 E11.85626
G1 X114.631 Y112.248 E11.88869
G1 X115.195 Y111.456 E11.92103
G1 X115.78 Y110.767 E11.95109
G0 F6000 X116.085 Y111.026
G1 F1200 X116.773 Y110.345 E11.98329
G1 X117.238 Y109.951 E12.00356
G1 X117.565 Y109.689 E12.0175
G1 X118.323 Y109.135 E12.04872
G1 X119.096 Y108.669 E12.07874
G1 X119.971 Y108.241 E12.11114
G1 X120.849 Y107.907 E12.14239
G1 X121.751 Y107.652 E12.17356
G1 X122.638 Y107.482 E12.2036
G1 X123.872 Y107.373 E12.2448
G1 X124.518 Y107.359 E12.2663
G1 X128.487 Y107.358 E12.3983
G1 X129.353 Y107.37 E12.42711
G1 X130.289 Y107.426 E12.4583
G1 X131.218 Y107.565 E12.48954
G1 X132.122 Y107.783 E12.52047
G1 X132.57 Y107.923 E12.53608
G1 X133.608 Y108.274 E12.57253
G1 X134.437 Y108.566 E12.60176
G1 X136.828 Y109.332 E12.68526
G1 X139.257 Y110.036 E12.76938
G1 X141.698 Y110.668 E12.85324
G1 X144.17 Y111.234 E12.93759
G1 X146.666 Y111.732 E13.02224
G1 X149.149 Y112.155 E13.10602
G1 X151.622 Y112.505 E13.18909
G1 X154.163 Y112.791 E13.27414
G1 X156.687 Y113.004 E13.35839
G1 X159.192 Y113.143 E13.44183
G1 X161.727 Y113.212 E13.52618
G1 X164.236 Y113.21 E13.60963
G1 X166.802 Y113.135 E13.69501
G1 X169.31 Y112.99 E13.77856
G1 X172.506 Y112.712 E13.88526
G1 X173.49 Y112.646 E13.91807
G1 X173.945 Y112.627 E13.93321
G1 X174.615 Y112.62 E13.9555
G1 X175.603 Y112.641 E13.98837
G1 X176.387 Y112.68 E14.01447
G1 X177.154 Y112.753 E14.0401
G1 X177.992 Y112.867 E14.06823
G1 X178.719 Y112.987 E14.09274
G1 X179.482 Y113.142 E14.11863
G1 X179.987 Y113.265 E14.13592
G1 X180.82 Y113.49 E14.16462
G1 X181.458 Y113.687 E14.18683
G1 X182.402 Y114.013 E14.22004
G1 X183.141 Y114.291 E14.2463
G1 X183.963 Y114.647 E14.2761
G1 X184.558 Y114.936 E14.2981
G1 X185.225 Y115.28 E14.32306
G1 X185.802 Y115.606 E14.3451
G1 X186.922 Y116.289 E14.38873
G1 X187.522 Y116.682 E14.41259
G1 X189.488 Y118.004 E14.49139
G1 X191.651 Y119.371 E14.57649
G1 X193.813 Y120.654 E14.66011
G1 X196.016 Y121.876 E14.7439
G1 X198.24 Y123.032 E14.82727
G1 X200.569 Y124.157 E14.91329
G1 X202.74 Y125.139 E14.99254
G1 X203.576 Y125.565 E15.02375
G1 X204.371 Y126.062 E15.05493
G1 X205.053 Y126.573 E15.08328
G1 X205.958 Y127.311 E15.12212
G1 X206.658 Y127.937 E15.15335
G1 X207.276 Y128.596 E15.1834
G1 X207.877 Y129.362 E15.21578
G1 X208.388 Y130.149 E15.24699
G1 X208.826 Y130.978 E15.27818
G1 X209.191 Y131.843 E15.3094
G1 X209.468 Y132.703 E15.33945
G1 X209.682 Y133.653 E15.37184
G1 X209.806 Y134.582 E15.40302
G1 X209.847 Y135.394 E15.43006
G1 X209.887 Y138.848 E15.54495
G1 X209.99 Y141.416 E15.63043
G1 X210.161 Y143.92 E15.7139
G1 X210.403 Y146.422 E15.79751
G1 X210.721 Y148.947 E15.88215
G1 X211 Y150.846 E15.94599
G1 X211.107 Y152.07 E15.98686
G1 X211.122 Y152.718 E16.00842
G1 X211.121 Y154.833 E16.07876
G1 X211.11 Y155.546 E16.10248
G1 X211.063 Y156.396 E16.13079
G1 X210.99 Y157.131 E16.15536
G1 X210.825 Y158.596 E16.2044
G1 X210.607 Y161.13 E16.28899
G1 X210.465 Y163.656 E16.37314
G1 X210.392 Y166.195 E16.45762
G1 X210.392 Y168.718 E16.54153
G1 X210.463 Y171.235 E16.62528
G1 X210.606 Y173.753 E16.70917
G1 X210.822 Y176.302 E16.79425
G1 X211.051 Y178.407 E16.86468
G1 X211.107 Y179.225 E16.89195
G1 X211.122 Y179.873 E16.9135
G1 X211.121 Y181.938 E16.98219
G1 X211.111 Y182.683 E17.00697
G1 X211.057 Y183.62 E17.03818
G1 X210.919 Y184.549 E17.06942
G1 X210.7 Y185.461 E17.10062
G1 X210.402 Y186.351 E17.13183
G1 X210.025 Y187.211 E17.16307
G1 X209.575 Y188.033 E17.19423
G1 X209.053 Y188.814 E17.22548
G1 X208.464 Y189.544 E17.25668
G1 X207.839 Y190.195 E17.28669
G1 X207.104 Y190.836 E17.31913
G1 X206.344 Y191.386 E17.35033
G1 X205.538 Y191.867 E17.38155
G1 X204.693 Y192.275 E17.41276
G1 X203.815 Y192.606 E17.44397
G1 X202.911 Y192.859 E17.47519
G1 X201.984 Y193.031 E17.50655
G1 X200.833 Y193.129 E17.54497
G1 X200.192 Y193.143 E17.56629
G1 X190.952 Y193.142 E17.87362
G1 X190.237 Y193.131 E17.8974
G1 X189.3 Y193.075 E17.92862
G1 X188.372 Y192.936 E17.95983
G1 X187.458 Y192.715 E17.99111
G1 X186.485 Y192.382 E18.02531
G1 X185.425 Y191.96 E18.06326
G1 X183.046 Y191.044 E18.14805
G1 X180.636 Y190.193 E18.23306
G1 X178.248 Y189.426 E18.31648
G1 X175.833 Y188.724 E18.40013
G1 X173.362 Y188.082 E18.48504
G1 X170.89 Y187.513 E18.56941
G1 X168.416 Y187.017 E18.65333
G1 X165.921 Y186.591 E18.73752
G1 X163.448 Y186.239 E18.8206
G1 X160.941 Y185.955 E18.90451
G1 X158.388 Y185.738 E18.98973
G1 X155.869 Y185.596 E19.07365
G1 X153.343 Y185.525 E19.1577
G1 X150.831 Y185.525 E19.24125
G1 X148.304 Y185.597 E19.32533
G1 X146.594 Y185.706 E19.38232
G1 X146.295 Y185.712 E19.39227
G1 X145.128 Y185.78 E19.43115
G1 X144.49 Y185.802 E19.45238
G1 X141.506 Y185.805 E19.55163
G1 X140.631 Y185.792 E19.58073
G1 X137.61 Y185.703 E19.68126
G1 X135.12 Y185.703 E19.76407
G1 X132.581 Y185.776 E19.84856
G1 X130.055 Y185.919 E19.93271
G1 X127.568 Y186.132 E20.01573
G1 X126.126 Y186.304 E20.06403
G1 X125.722 Y186.334 E20.0775
G1 X124.655 Y186.456 E20.11322
G1 X123.764 Y186.519 E20.14293
G1 X123.148 Y186.532 E20.16342
G1 X120.273 Y186.531 E20.25905
G1 X119.53 Y186.519 E20.28376
G1 X118.266 Y186.421 E20.32593
G1 X115.917 Y186.091 E20.40482
G1 X113.446 Y185.81 E20.48754
G1 X110.927 Y185.595 E20.57163
G1 X108.388 Y185.452 E20.65621
G1 X105.881 Y185.38 E20.73962
G1 X102.314 Y185.398 E20.85827
G1 X101.212 Y185.415 E20.89492
G1 X100.265 Y185.407 E20.92642
G1 X99.329 Y185.355 E20.9576
G1 X98.4 Y185.219 E20.98883
G1 X97.487 Y185.002 E21.02004
G1 X96.597 Y184.704 E21.05126
G1 X95.736 Y184.329 E21.08249
G1 X94.913 Y183.88 E21.11367
G1 X94.131 Y183.359 E21.14493
G1 X93.399 Y182.772 E21.17614
G1 X92.747 Y182.147 E21.20618
G1 X92.157 Y181.479 E21.23582
G1 X91.757 Y180.984 E21.25699
G1 X91.285 Y180.353 E21.28319
G1 X90.758 Y179.591 E21.31401
G1 X90.261 Y178.795 E21.34522
G1 X89.836 Y177.958 E21.37644
G1 X89.486 Y177.087 E21.40766
G1 X89.214 Y176.189 E21.43887
G1 X89.029 Y175.305 E21.46891
G1 X88.915 Y174.341 E21.5012
G1 X88.888 Y173.616 E21.52533
G1 X88.88 Y170.66 E21.62364
G1 X88.89 Y169.865 E21.65009
G1 X88.946 Y168.928 E21.68131
G1 X89.086 Y168.001 E21.71249
G1 X89.307 Y167.087 E21.74377
G1 X89.607 Y166.2 E21.77491
G1 X89.988 Y165.334 E21.80638
G1 X90.609 Y164.246 E21.84804
G1 X90.961 Y163.708 E21.86943
G1 X92.297 Y161.724 E21.94898
G1 X93.647 Y159.591 E22.03294
G1 X94.926 Y157.435 E22.11632
G1 X96.161 Y155.218 E22.20073
G1 X97.337 Y152.955 E22.28555
G1 X98.416 Y150.727 E22.36789
G1 X99.476 Y148.37 E22.45384
G1 X100.426 Y146.09 E22.536
G1 X101.363 Y143.645 E22.62308
G1 X102.182 Y141.316 E22.7052
G1 X102.448 Y140.478 E22.73444
G1 X102.852 Y139.262 E22.77706
G1 X103.189 Y138.386 E22.80827
G1 X103.584 Y137.574 E22.83831
G1 X103.86 Y137.095 E22.8567
G1 X104.309 Y136.36 E22.88534
G1 X105.63 Y134.118 E22.97189
G1 X106.846 Y131.917 E23.05553
G1 X108.031 Y129.621 E23.14146
G1 X109.101 Y127.395 E23.22361
G1 X110.136 Y125.075 E23.3081
G1 X111.12 Y122.689 E23.39395
G1 X112.003 Y120.365 E23.47663
G1 X112.826 Y117.999 E23.55995
G1 X113.763 Y115.022 E23.66376
G1 X114.086 Y114.14 E23.695
G1 X114.485 Y113.291 E23.7262
G1 X114.957 Y112.48 E23.75741
G1 X115.5 Y111.715 E23.78861
G1 X116.085 Y111.026 E23.81867
G0 F6000 X116.39 Y111.285
G1 F1200 X117.032 Y110.65 E23.84871
G1 X117.488 Y110.263 E23.8686
G1 X117.801 Y110.012 E23.88194
G1 X118.53 Y109.478 E23.912
G1 X119.303 Y109.012 E23.94202
G1 X120.114 Y108.615 E23.97205
G1 X120.958 Y108.292 E24.00211
G1 X121.826 Y108.045 E24.03212
G1 X122.713 Y107.875 E24.06216
G1 X123.881 Y107.773 E24.10116
G1 X124.518 Y107.759 E24.12235
G1 X128.482 Y107.758 E24.25419
G1 X129.33 Y107.769 E24.2824
G1 X130.231 Y107.822 E24.31242
G1 X131.125 Y107.954 E24.34248
G1 X132.003 Y108.165 E24.37251
G1 X132.442 Y108.302 E24.38781
G1 X133.475 Y108.651 E24.42407
G1 X134.315 Y108.947 E24.45369
G1 X136.706 Y109.713 E24.5372
G1 X139.151 Y110.421 E24.62186
G1 X141.609 Y111.058 E24.70632
G1 X144.081 Y111.624 E24.79066
G1 X146.592 Y112.125 E24.87583
G1 X149.093 Y112.551 E24.96021
G1 X151.566 Y112.901 E25.04328
G1 X154.13 Y113.19 E25.1291
G1 X156.654 Y113.402 E25.21334
G1 X159.181 Y113.543 E25.29752
G1 X161.716 Y113.612 E25.38187
G1 X164.248 Y113.61 E25.46608
G1 X166.814 Y113.535 E25.55146
G1 X169.333 Y113.389 E25.63539
G1 X172.533 Y113.111 E25.74222
G1 X173.507 Y113.046 E25.77469
G1 X173.949 Y113.027 E25.7894
G1 X174.606 Y113.02 E25.81126
G1 X175.583 Y113.041 E25.84376
G1 X176.367 Y113.08 E25.86987
G1 X177.1 Y113.149 E25.89435
G1 X177.927 Y113.262 E25.92212
G1 X178.639 Y113.379 E25.94611
G1 X179.388 Y113.531 E25.97153
G1 X179.883 Y113.651 E25.98847
G1 X180.702 Y113.872 E26.01669
