;FLAVOR:Marlin
;TIME:3969
;Filament used: 1.93941m
;Layer height: 0.2
;MINX:124.152
;MINY:112.723
;MINZ:0.2
;MAXX:175.795
;MAXY:184.364
;MAXZ:19.8
;TARGET_MACHINE.NAME:Creality CR-10
;Generated with Cura_SteamEngine 5.7.0
M104 S228
M105
M109 S228
M82 ;absolute extrusion mode
M201 X500.00 Y500.00 Z100.00 E5000.00 ;Setup machine max acceleration
M203 X500.00 Y500.00 Z10.00 E50.00 ;Setup machine max feedrate
M204 P500.00 R1000.00 T500.00 ;Setup Print/Retract/Travel acceleration
M205 X8.00 Y8.00 Z0.40 E5.00 ;Setup Jerk
M220 S100 ;Reset Feedrate
M221 S100 ;Reset Flowrate

G28 ;Home

G92 E0 ;Reset Extruder
G1 Z2.0 F3000 ;Move Z Axis up
G1 X10.1 Y20 Z0.28 F5000.0 ;Move to start position
G1 X10.1 Y200.0 Z0.28 F1500.0 E15 ;Draw the first line
G1 X10.4 Y200.0 Z0.28 F5000.0 ;Move to side a little
G1 X10.4 Y20 Z0.28 F1500.0 E30 ;Draw the second line
G92 E0 ;Reset Extruder
G1 Z2.0 F3000 ;Move Z Axis up

G92 E0
G92 E0
G1 F1500 E-6.5
;LAYER_COUNT:99
;LAYER:0
M107
G0 F6000 X128.492 Y120.844 Z0.2
;TYPE:SKIRT
G1 F1500 E0
G1 F1200 X128.985 Y120.341 E0.02343
G1 X129.646 Y119.725 E0.05348
G1 X130.456 Y119.093 E0.08765
G1 X130.85 Y118.826 E0.10348
G1 X131.733 Y118.255 E0.13845
G1 X133.983 Y116.765 E0.22821
G1 X135.965 Y115.371 E0.3088
G1 X136.724 Y114.823 E0.33994
G1 X137.54 Y114.291 E0.37234
G1 X138.397 Y113.833 E0.40466
G1 X139.228 Y113.477 E0.43473
G1 X140.222 Y113.153 E0.4695
G1 X141.17 Y112.937 E0.50184
G1 X142.022 Y112.816 E0.53046
G1 X142.306 Y112.788 E0.53995
G1 X143.093 Y112.737 E0.56618
G1 X143.711 Y112.724 E0.58674
G1 X145.124 Y112.723 E0.63374
G1 X146.022 Y112.734 E0.66361
G1 X148.683 Y112.807 E0.75215
G1 X151.181 Y112.805 E0.83523
G1 X154.239 Y112.726 E0.93697
G1 X155.908 Y112.723 E0.99248
G1 X156.788 Y112.736 E1.02176
G1 X157.871 Y112.801 E1.05784
G1 X158.956 Y112.964 E1.09433
G1 X159.868 Y113.184 E1.12554
G1 X160.824 Y113.505 E1.15908
G1 X161.651 Y113.866 E1.18909
G1 X162.73 Y114.468 E1.23019
G1 X164.801 Y115.781 E1.31175
G1 X167.854 Y117.582 E1.42964
G1 X168.595 Y118.002 E1.45797
G1 X169.42 Y118.52 E1.49037
G1 X170.203 Y119.115 E1.52308
G1 X171.068 Y119.917 E1.56231
G1 X171.787 Y120.662 E1.59675
G1 X172.443 Y121.37 E1.62885
G1 X173.069 Y122.115 E1.66122
G1 X173.608 Y122.884 E1.69245
G1 X174.11 Y123.759 E1.726
G1 X174.519 Y124.645 E1.75846
G1 X174.854 Y125.584 E1.79162
G1 X175.209 Y126.757 E1.83238
G1 X175.407 Y127.479 E1.85728
G1 X175.621 Y128.429 E1.88967
G1 X175.752 Y129.395 E1.92209
G1 X175.795 Y130.367 E1.95445
G1 X175.752 Y131.338 E1.98678
G1 X175.636 Y132.234 E2.01683
G1 X175.466 Y133.039 E2.04419
G1 X175.287 Y133.728 E2.06787
G1 X174.902 Y135.071 E2.11434
G1 X174.655 Y135.821 E2.1406
G1 X173.905 Y137.849 E2.21252
G1 X173.093 Y140.225 E2.29603
G1 X172.342 Y142.645 E2.38031
G1 X171.666 Y145.063 E2.46382
G1 X171.053 Y147.523 E2.54814
G1 X170.509 Y150.005 E2.63265
G1 X170.047 Y152.429 E2.71472
G1 X169.646 Y154.932 E2.79903
G1 X169.317 Y157.418 E2.88244
G1 X169.058 Y159.923 E2.9662
G1 X168.869 Y162.458 E3.05075
G1 X168.752 Y164.977 E3.13462
G1 X168.707 Y167.435 E3.21639
G1 X168.725 Y169.923 E3.29914
G1 X168.685 Y170.894 E3.33147
G1 X168.561 Y171.863 E3.36396
G1 X168.349 Y172.819 E3.39653
G1 X168.068 Y173.859 E3.43236
G1 X167.794 Y174.795 E3.4648
G1 X167.475 Y175.715 E3.49718
G1 X167.078 Y176.603 E3.52953
G1 X166.621 Y177.424 E3.56079
G1 X166.043 Y178.269 E3.59484
G1 X165.168 Y179.296 E3.63971
G1 X164.412 Y180.073 E3.67577
G1 X163.7 Y180.769 E3.70888
G1 X162.973 Y181.415 E3.74123
G1 X162.22 Y181.976 E3.77246
G1 X161.361 Y182.506 E3.80603
G1 X160.554 Y182.911 E3.83607
G1 X159.167 Y183.428 E3.8853
G1 X158.174 Y183.72 E3.91972
G1 X157.167 Y183.992 E3.95442
G1 X156.216 Y184.201 E3.9868
G1 X155.249 Y184.326 E4.01923
G1 X154.279 Y184.364 E4.05152
G1 X153.447 Y184.329 E4.07922
G1 X151.753 Y184.184 E4.13577
G1 X149.286 Y184.018 E4.218
G1 X146.22 Y183.905 E4.32005
G1 X145.319 Y183.832 E4.35011
G1 X144.299 Y183.658 E4.38453
G1 X143.668 Y183.501 E4.40616
G1 X142.458 Y183.155 E4.44801
G1 X141.752 Y182.937 E4.47259
G1 X140.837 Y182.606 E4.50495
G1 X139.955 Y182.195 E4.53732
G1 X139.111 Y181.708 E4.56973
G1 X138.371 Y181.191 E4.59975
G1 X137.318 Y180.281 E4.64604
G1 X136.33 Y179.305 E4.69223
G1 X135.839 Y178.802 E4.71561
G1 X135.216 Y178.101 E4.7468
G1 X134.615 Y177.29 E4.78038
G1 X134.108 Y176.459 E4.81275
G1 X133.671 Y175.574 E4.84558
G1 X133.231 Y174.394 E4.88747
G1 X132.826 Y173.052 E4.93409
G1 X132.645 Y172.387 E4.95701
G1 X132.433 Y171.437 E4.98939
G1 X132.305 Y170.482 E5.02144
G1 X132.265 Y169.83 E5.04316
G1 X132.179 Y166.869 E5.14169
G1 X132.034 Y164.403 E5.22385
G1 X131.812 Y161.866 E5.30855
G1 X131.528 Y159.422 E5.39039
G1 X131.161 Y156.887 E5.47558
G1 X130.732 Y154.424 E5.55873
G1 X130.232 Y151.958 E5.64242
G1 X129.659 Y149.493 E5.72659
G1 X129.021 Y147.067 E5.81003
G1 X128.314 Y144.65 E5.89378
G1 X127.532 Y142.239 E5.97809
G1 X126.696 Y139.889 E6.06105
G1 X125.748 Y137.448 E6.14814
G1 X125.411 Y136.611 E6.17815
G1 X125.095 Y135.717 E6.20969
G1 X124.729 Y134.5 E6.25196
G1 X124.545 Y133.839 E6.27478
G1 X124.329 Y132.89 E6.30715
G1 X124.197 Y131.924 E6.33958
G1 X124.152 Y130.951 E6.37198
G1 X124.193 Y129.979 E6.40433
G1 X124.308 Y129.083 E6.43438
G1 X124.546 Y128.015 E6.47077
G1 X124.854 Y126.909 E6.50896
G1 X125.109 Y126.074 E6.538
G1 X125.438 Y125.158 E6.57037
G1 X125.814 Y124.337 E6.6004
G1 X126.333 Y123.43 E6.63516
G1 X126.893 Y122.629 E6.66766
G1 X127.534 Y121.869 E6.70073
G1 X128.492 Y120.844 E6.7474
G0 F6000 X128.777 Y121.124
G1 F1200 X129.258 Y120.634 E6.77023
G1 X129.919 Y120.018 E6.80029
G1 X130.68 Y119.424 E6.83239
G1 X131.067 Y119.162 E6.84794
G1 X131.954 Y118.589 E6.88306
G1 X134.204 Y117.099 E6.97282
G1 X136.195 Y115.698 E7.05379
G1 X136.943 Y115.158 E7.08447
G1 X137.729 Y114.644 E7.11571
G1 X138.555 Y114.201 E7.14688
G1 X139.386 Y113.845 E7.17695
G1 X140.312 Y113.543 E7.20935
G1 X141.226 Y113.333 E7.24054
G1 X142.062 Y113.214 E7.26863
G1 X142.332 Y113.187 E7.27765
G1 X143.102 Y113.137 E7.30332
G1 X143.711 Y113.124 E7.32358
G1 X145.119 Y113.123 E7.37041
G1 X146.011 Y113.134 E7.40008
G1 X148.672 Y113.207 E7.48861
G1 X151.191 Y113.205 E7.5724
G1 X154.24 Y113.126 E7.67384
G1 X155.902 Y113.123 E7.72912
G1 X156.764 Y113.135 E7.75779
G1 X157.812 Y113.197 E7.79271
G1 X158.862 Y113.353 E7.82802
G1 X159.774 Y113.573 E7.85922
G1 X160.664 Y113.872 E7.89045
G1 X161.491 Y114.233 E7.92046
G1 X162.516 Y114.806 E7.95952
G1 X164.598 Y116.126 E8.04151
G1 X167.651 Y117.927 E8.1594
G1 X168.383 Y118.341 E8.18737
G1 X169.179 Y118.839 E8.2186
G1 X169.931 Y119.408 E8.24997
G1 X170.78 Y120.195 E8.28847
G1 X171.494 Y120.934 E8.32265
G1 X172.137 Y121.627 E8.35409
G1 X172.741 Y122.345 E8.3853
G1 X173.28 Y123.114 E8.41653
G1 X173.747 Y123.927 E8.44772
G1 X174.142 Y124.78 E8.47898
G1 X174.471 Y125.7 E8.51148
G1 X174.823 Y126.863 E8.55189
G1 X175.017 Y127.568 E8.57621
G1 X175.225 Y128.483 E8.60742
G1 X175.352 Y129.413 E8.63864
G1 X175.395 Y130.35 E8.66984
G1 X175.355 Y131.287 E8.70103
G1 X175.239 Y132.183 E8.73108
G1 X175.079 Y132.939 E8.75678
G1 X174.903 Y133.618 E8.78011
G1 X174.522 Y134.946 E8.82607
G1 X174.28 Y135.682 E8.85183
G1 X173.526 Y137.72 E8.92411
G1 X172.714 Y140.096 E9.00762
G1 X171.96 Y142.526 E9.09225
G1 X171.281 Y144.955 E9.17613
G1 X170.662 Y147.437 E9.26121
G1 X170.118 Y149.919 E9.34572
G1 X169.654 Y152.354 E9.42817
G1 X169.249 Y154.88 E9.51326
G1 X168.92 Y157.366 E9.59666
G1 X168.66 Y159.882 E9.68079
G1 X168.47 Y162.428 E9.76571
G1 X168.352 Y164.958 E9.84995
G1 X168.307 Y167.428 E9.93211
G1 X168.325 Y169.907 E10.01457
G1 X168.288 Y170.844 E10.04576
G1 X168.17 Y171.776 E10.077
G1 X167.958 Y172.732 E10.10957
G1 X167.684 Y173.747 E10.14454
G1 X167.416 Y174.665 E10.17635
G1 X167.11 Y175.552 E10.20755
G1 X166.728 Y176.408 E10.23873
G1 X166.271 Y177.229 E10.26998
G1 X165.738 Y178.01 E10.30143
G1 X164.881 Y179.017 E10.34541
G1 X164.132 Y179.787 E10.38114
G1 X163.434 Y180.47 E10.41362
G1 X162.734 Y181.094 E10.44481
G1 X161.981 Y181.655 E10.47604
G1 X161.182 Y182.148 E10.50727
G1 X160.375 Y182.553 E10.5373
G1 X159.054 Y183.044 E10.58417
G1 X158.07 Y183.334 E10.61829
G1 X157.08 Y183.601 E10.6524
G1 X156.164 Y183.804 E10.6836
G1 X155.233 Y183.926 E10.71483
G1 X154.296 Y183.964 E10.74602
G1 X153.481 Y183.93 E10.77315
G1 X151.787 Y183.785 E10.8297
G1 X149.301 Y183.618 E10.91257
G1 X146.252 Y183.506 E11.01405
G1 X145.351 Y183.433 E11.04412
G1 X144.396 Y183.27 E11.07634
G1 X143.778 Y183.116 E11.09752
G1 X142.576 Y182.773 E11.1391
G1 X141.888 Y182.561 E11.16304
G1 X141.005 Y182.243 E11.19426
G1 X140.154 Y181.848 E11.22546
G1 X139.34 Y181.38 E11.25669
G1 X138.6 Y180.863 E11.28672
G1 X137.599 Y179.996 E11.33076
G1 X136.616 Y179.026 E11.37669
G1 X136.138 Y178.536 E11.39946
G1 X135.515 Y177.835 E11.43065
G1 X134.956 Y177.081 E11.46187
G1 X134.466 Y176.281 E11.49308
G1 X134.046 Y175.434 E11.52452
G1 X133.606 Y174.254 E11.56641
G1 X133.212 Y172.946 E11.61184
G1 X133.035 Y172.299 E11.63415
G1 X132.829 Y171.383 E11.66538
G1 X132.704 Y170.458 E11.69642
G1 X132.665 Y169.818 E11.71775
G1 X132.579 Y166.857 E11.81627
G1 X132.433 Y164.379 E11.89884
G1 X132.21 Y161.831 E11.98391
G1 X131.924 Y159.365 E12.06648
G1 X131.557 Y156.83 E12.15167
G1 X131.126 Y154.355 E12.23523
G1 X130.622 Y151.867 E12.31966
G1 X130.049 Y149.402 E12.40383
G1 X129.408 Y146.965 E12.48764
G1 X128.698 Y144.538 E12.57175
G1 X127.909 Y142.105 E12.65682
G1 X127.073 Y139.755 E12.73978
G1 X126.121 Y137.303 E12.82726
G1 X125.788 Y136.478 E12.85686
G1 X125.478 Y135.602 E12.88776
G1 X125.114 Y134.393 E12.92976
G1 X124.935 Y133.75 E12.95196
G1 X124.725 Y132.835 E12.98318
G1 X124.597 Y131.905 E13.0144
G1 X124.552 Y130.967 E13.04564
G1 X124.59 Y130.03 E13.07683
G1 X124.705 Y129.134 E13.10687
G1 X124.931 Y128.122 E13.14136
G1 X125.236 Y127.026 E13.1792
G1 X125.486 Y126.209 E13.20762
G1 X125.802 Y125.325 E13.23884
G1 X126.178 Y124.504 E13.26888
G1 X126.661 Y123.659 E13.30125
G1 X127.199 Y122.887 E13.33254
G1 X127.84 Y122.127 E13.36561
G1 X128.777 Y121.124 E13.41126
G0 F6000 X129.063 Y121.404
G1 F1200 X129.531 Y120.927 E13.43349
G1 X130.192 Y120.311 E13.46354
G1 X130.904 Y119.755 E13.49359
G1 X131.284 Y119.498 E13.50885
G1 X132.175 Y118.923 E13.54412
G1 X134.425 Y117.433 E13.63387
G1 X136.425 Y116.025 E13.71522
G1 X137.163 Y115.492 E13.7455
G1 X137.918 Y114.996 E13.77555
G1 X138.713 Y114.569 E13.80556
G1 X139.544 Y114.213 E13.83563
G1 X140.402 Y113.933 E13.86565
G1 X141.282 Y113.729 E13.89569
G1 X142.103 Y113.612 E13.92328
G1 X142.358 Y113.586 E13.9318
G1 X143.111 Y113.537 E13.9569
G1 X143.711 Y113.524 E13.97686
G1 X145.114 Y113.523 E14.02352
G1 X146 Y113.534 E14.053
G1 X148.661 Y113.607 E14.14153
G1 X151.201 Y113.605 E14.22601
G1 X154.241 Y113.526 E14.32716
G1 X155.897 Y113.523 E14.38224
G1 X156.741 Y113.534 E14.41031
G1 X157.754 Y113.593 E14.44406
G1 X158.769 Y113.742 E14.47818
G1 X159.647 Y113.952 E14.50821
G1 X160.504 Y114.239 E14.53827
G1 X161.331 Y114.6 E14.56828
G1 X162.302 Y115.144 E14.6053
G1 X164.395 Y116.471 E14.68773
G1 X167.448 Y118.272 E14.80562
G1 X168.171 Y118.68 E14.83323
G1 X168.938 Y119.158 E14.86329
G1 X169.659 Y119.702 E14.89333
G1 X170.492 Y120.473 E14.93108
G1 X171.201 Y121.206 E14.965
G1 X171.831 Y121.885 E14.99581
G1 X172.414 Y122.575 E15.02585
G1 X172.933 Y123.314 E15.05589
G1 X173.384 Y124.096 E15.08591
G1 X173.765 Y124.915 E15.11596
G1 X174.088 Y125.816 E15.14779
G1 X174.437 Y126.969 E15.18786
G1 X174.627 Y127.657 E15.2116
G1 X174.829 Y128.537 E15.24163
G1 X174.952 Y129.432 E15.27168
G1 X174.995 Y130.334 E15.30171
G1 X174.958 Y131.236 E15.33174
G1 X174.842 Y132.132 E15.36179
G1 X174.692 Y132.839 E15.38583
G1 X174.519 Y133.508 E15.40881
G1 X174.142 Y134.821 E15.45424
G1 X173.905 Y135.543 E15.47952
G1 X173.151 Y137.581 E15.55179
G1 X172.332 Y139.977 E15.63601
G1 X171.578 Y142.407 E15.72063
G1 X170.896 Y144.847 E15.8049
G1 X170.271 Y147.351 E15.89074
G1 X169.727 Y149.833 E15.97525
G1 X169.261 Y152.279 E16.05807
G1 X168.852 Y154.828 E16.14393
G1 X168.523 Y157.314 E16.22734
G1 X168.262 Y159.841 E16.31183
G1 X168.071 Y162.398 E16.39712
G1 X167.952 Y164.939 E16.48172
G1 X167.907 Y167.421 E16.56429
G1 X167.925 Y169.892 E16.64648
G1 X167.891 Y170.794 E16.6765
G1 X167.779 Y171.69 E16.70653
G1 X167.572 Y172.628 E16.73848
G1 X167.3 Y173.635 E16.77317
G1 X167.038 Y174.535 E16.80435
G1 X166.745 Y175.389 E16.83438
G1 X166.378 Y176.214 E16.86441
G1 X165.94 Y177.004 E16.89445
G1 X165.433 Y177.751 E16.92448
G1 X164.576 Y178.758 E16.96846
G1 X163.852 Y179.501 E17.00297
G1 X163.167 Y180.172 E17.03486
G1 X162.494 Y180.774 E17.06489
G1 X161.771 Y181.315 E17.09493
G1 X161.003 Y181.79 E17.12496
G1 X160.196 Y182.195 E17.15499
G1 X158.941 Y182.66 E17.19951
G1 X157.966 Y182.948 E17.23332
G1 X156.993 Y183.211 E17.26684
G1 X156.111 Y183.407 E17.29689
G1 X155.216 Y183.526 E17.32692
G1 X154.313 Y183.564 E17.35699
G1 X153.515 Y183.531 E17.38355
G1 X151.821 Y183.386 E17.4401
G1 X149.316 Y183.218 E17.5236
G1 X146.284 Y183.107 E17.62451
G1 X145.383 Y183.034 E17.65458
G1 X144.493 Y182.882 E17.68461
G1 X143.888 Y182.731 E17.70535
G1 X142.694 Y182.391 E17.74664
G1 X142.023 Y182.184 E17.77
G1 X141.173 Y181.88 E17.80002
G1 X140.353 Y181.501 E17.83007
G1 X139.569 Y181.052 E17.86012
G1 X138.829 Y180.535 E17.89014
G1 X137.88 Y179.711 E17.93194
G1 X136.902 Y178.747 E17.97762
G1 X136.437 Y178.27 E17.99977
G1 X135.836 Y177.596 E18.02981
G1 X135.297 Y176.872 E18.05983
G1 X134.824 Y176.102 E18.08988
G1 X134.421 Y175.294 E18.11992
G1 X133.981 Y174.114 E18.1618
G1 X133.598 Y172.84 E18.20605
G1 X133.425 Y172.21 E18.22778
G1 X133.225 Y171.329 E18.25783
G1 X133.103 Y170.434 E18.28787
G1 X133.065 Y169.806 E18.3088
G1 X132.979 Y166.845 E18.40732
G1 X132.832 Y164.355 E18.49028
G1 X132.608 Y161.796 E18.57572
G1 X132.32 Y159.308 E18.65902
G1 X131.953 Y156.773 E18.74422
G1 X131.52 Y154.286 E18.82818
G1 X131.012 Y151.776 E18.91336
G1 X130.439 Y149.311 E18.99753
G1 X129.795 Y146.863 E19.08172
G1 X129.082 Y144.426 E19.16617
G1 X128.286 Y141.971 E19.25201
G1 X127.45 Y139.621 E19.33497
G1 X126.494 Y137.158 E19.42284
G1 X126.165 Y136.345 E19.45201
G1 X125.861 Y135.486 E19.48232
G1 X125.499 Y134.286 E19.52401
G1 X125.325 Y133.66 E19.54562
G1 X125.121 Y132.78 E19.57567
G1 X124.997 Y131.885 E19.60572
G1 X124.952 Y130.983 E19.63576
G1 X124.987 Y130.081 E19.66578
G1 X125.102 Y129.185 E19.69582
G1 X125.316 Y128.229 E19.72841
G1 X125.618 Y127.143 E19.7659
G1 X125.863 Y126.343 E19.79373
G1 X126.166 Y125.492 E19.82377
G1 X126.542 Y124.671 E19.85381
G1 X126.99 Y123.887 E19.88384
G1 X127.505 Y123.145 E19.91388
G1 X128.146 Y122.385 E19.94695
G1 X129.063 Y121.404 E19.99161
G1 F1500 E13.49161
G0 F6000 X135.785 Y129.428
G1 F1500 E19.99161
G1 F1200 X136.916 Y128.236 E20.04626
G1 X137.513 Y128.067 E20.0669
G1 X137.561 Y128.038 E20.06877
G1 X139.193 Y127.58 E20.12514
G1 X140.727 Y128.011 E20.17814
G1 X141.84 Y129.184 E20.23192
G1 X142.267 Y130.652 E20.28277
G1 X141.837 Y132.19 E20.33589
G1 X140.728 Y133.299 E20.38805
G1 X140.24 Y133.437 E20.40492
G1 X140.153 Y133.488 E20.40827
G1 X140.035 Y133.606 E20.41382
G1 X138.471 Y134.043 E20.46783
G1 X136.98 Y133.607 E20.5195
G1 X135.787 Y132.414 E20.57562
G1 X135.348 Y130.921 E20.62738
G1 X135.785 Y129.428 E20.67912
G0 F6000 X136.142 Y129.632
G1 F1200 X137.13 Y128.591 E20.72685
G1 X137.622 Y128.452 E20.74386
G1 X137.67 Y128.423 E20.74572
G1 X139.193 Y127.995 E20.79834
G1 X140.513 Y128.366 E20.84394
G1 X141.482 Y129.388 E20.89079
G1 X141.851 Y130.655 E20.93468
G1 X141.48 Y131.981 E20.98047
G1 X140.518 Y132.943 E21.02572
G1 X140.131 Y133.052 E21.0391
G1 X139.87 Y133.205 E21.04916
G1 X139.826 Y133.249 E21.05123
G1 X138.474 Y133.627 E21.09792
G1 X137.191 Y133.252 E21.14238
G1 X136.142 Y132.203 E21.19172
G1 X135.765 Y130.92 E21.2362
G1 X136.142 Y129.632 E21.28083
G0 F6000 X136.5 Y129.836
G1 F1200 X137.344 Y128.946 E21.32163
G1 X137.731 Y128.837 E21.335
G1 X137.828 Y128.794 E21.33853
G1 X139.193 Y128.411 E21.38568
G1 X140.299 Y128.722 E21.4239
G1 X141.126 Y129.593 E21.46384
G1 X141.435 Y130.657 E21.50069
G1 X141.124 Y131.771 E21.53916
G1 X140.309 Y132.586 E21.5775
G1 X140.022 Y132.667 E21.58742
G1 X139.764 Y132.781 E21.5968
G1 X139.628 Y132.889 E21.60257
G1 X138.477 Y133.211 E21.64233
