;FLAVOR:Marlin
;TIME:3285
;Filament used: 0.688297m
;Layer height: 0.1
;MINX:21.48
;MINY:27.738
;MINZ:0.3
;MAXX:98.501
;MAXY:92.771
;MAXZ:5.1
;TARGET_MACHINE.NAME:Unknown
;Generated with Cura_SteamEngine 5.7.0
M140 S60
M105
M190 S60
M104 S200
M105
M109 S200
M82 ;absolute extrusion mode
G28 ;Home
G1 Z15.0 F6000 ;Move the platform down 15mm
;Prime the extruder
G92 E0
G1 F200 E3
G92 E0
G92 E0
G92 E0
G1 F1500 E-6.5
;LAYER_COUNT:49
;LAYER:0
M107
G0 F3600 X47.224 Y32.27 Z0.3
;TYPE:SKIRT
G1 F1500 E0
G1 F1800 X48.87 Y30.369 E0.0473
G1 X51.26 Y29.032 E0.09881
G1 X51.648 Y28.911 E0.10646
G1 X53.809 Y28.627 E0.14746
G1 X56.391 Y28.661 E0.19603
G1 X56.566 Y28.68 E0.19934
G1 X57.125 Y28.62 E0.20992
G1 X59.66 Y28.66 E0.25761
G1 X61.653 Y28.962 E0.29553
G1 X64.168 Y30.39 E0.34993
G1 X64.538 Y30.823 E0.36064
G1 X64.807 Y30.845 E0.36572
G1 X65.276 Y30.783 E0.37462
G1 X66.137 Y30.776 E0.39081
G1 X66.683 Y30.084 E0.4074
G1 X68.028 Y29.003 E0.43985
G1 X70.031 Y28.005 E0.48195
G1 X71.845 Y27.765 E0.51637
G1 X74.33 Y27.738 E0.56312
G1 X76.383 Y28.152 E0.60251
G1 X77.835 Y28.917 E0.63338
G1 X82.959 Y28.912 E0.72977
G1 X83.595 Y28.568 E0.74337
G1 X85.816 Y28.252 E0.78557
G1 X88.266 Y28.22 E0.83166
G1 X90.367 Y28.743 E0.87239
G1 X91.242 Y29.11 E0.89023
G1 X93.167 Y30.458 E0.93444
G1 X94.454 Y32.104 E0.97374
G1 X95.505 Y34.221 E1.0182
G1 X95.744 Y36.024 E1.05242
G1 X95.755 Y38.561 E1.10014
G1 X95.721 Y38.824 E1.10513
G1 X95.784 Y39.552 E1.11887
G1 X95.706 Y41.857 E1.16225
G1 X95.482 Y43.258 E1.18894
G1 X95.261 Y43.771 E1.19945
G1 X95.518 Y44.334 E1.21109
G1 X95.743 Y46.035 E1.24337
G1 X95.758 Y48.555 E1.29077
G1 X95.722 Y48.835 E1.29608
G1 X95.78 Y49.285 E1.30462
G1 X95.789 Y51.571 E1.34762
G1 X95.461 Y53.278 E1.38031
G1 X95.289 Y53.718 E1.3892
G1 X95.518 Y54.226 E1.39968
G1 X95.743 Y55.924 E1.4319
G1 X95.758 Y58.445 E1.47932
G1 X95.722 Y58.725 E1.48463
G1 X95.78 Y59.175 E1.49317
G1 X95.789 Y61.461 E1.53617
G1 X95.445 Y63.25 E1.57044
G1 X94.997 Y64.296 E1.59184
G1 X95.282 Y64.79 E1.60257
G1 X95.787 Y67.335 E1.65138
G1 X95.762 Y69.84 E1.6985
G1 X95.729 Y70.07 E1.70287
G1 X95.771 Y70.458 E1.71021
G1 X95.745 Y72.377 E1.74631
G1 X96.002 Y72.592 E1.75262
G1 X97.432 Y74.28 E1.79423
G1 X98.328 Y76.727 E1.84325
G1 X98.487 Y78.433 E1.87548
G1 X98.458 Y80.404 E1.91256
G1 X98.44 Y80.543 E1.91519
G1 X98.49 Y80.922 E1.92239
G1 X98.501 Y83.457 E1.97007
G1 X97.829 Y85.707 E2.01424
G1 X97.063 Y87.162 E2.04517
G1 X95.767 Y88.682 E2.08275
G1 X93.638 Y90.158 E2.13148
G1 X91.112 Y90.799 E2.1805
G1 X86.091 Y90.8 E2.27495
G1 X84.047 Y90.346 E2.31433
G1 X83.541 Y90.091 E2.32499
G1 X79.48 Y90.08 E2.40138
G1 X78.619 Y90.78 E2.42225
G1 X76.613 Y91.779 E2.46441
G1 X74.806 Y92.018 E2.4987
G1 X70.165 Y92.046 E2.586
G1 X68.094 Y91.624 E2.62575
G1 X66.275 Y90.603 E2.66499
G1 X65.338 Y89.875 E2.68731
G1 X64.224 Y88.49 E2.72075
G1 X63.296 Y86.624 E2.75995
G1 X63.214 Y86.24 E2.76733
G1 X60.963 Y86.243 E2.80968
G1 X60.675 Y87.65 E2.83669
G1 X59.68 Y89.421 E2.8749
G1 X58.906 Y90.422 E2.8987
G1 X57.552 Y91.509 E2.93137
G1 X55.557 Y92.503 E2.97329
G1 X53.745 Y92.743 E3.00768
G1 X48.944 Y92.771 E3.09799
G1 X46.874 Y92.349 E3.13773
G1 X45.129 Y91.378 E3.17529
G1 X44.289 Y90.729 E3.19526
G1 X35.678 Y90.729 E3.35723
G1 X34.558 Y91.292 E3.38081
G1 X32.776 Y91.528 E3.41463
G1 X29.374 Y91.562 E3.47862
G1 X27.395 Y91.028 E3.51718
G1 X25.968 Y90.325 E3.5471
G1 X24.476 Y89.113 E3.58326
G1 X23.507 Y87.84 E3.61336
G1 X22.142 Y85.827 E3.65911
G1 X21.48 Y83.289 E3.70845
G1 X21.517 Y81.308 E3.74572
G1 X21.617 Y80.784 E3.75575
G1 X21.509 Y79.816 E3.77407
G1 X21.522 Y78.001 E3.80821
G1 X22.304 Y75.617 E3.85541
G1 X23.521 Y73.827 E3.89613
G1 X24.661 Y72.341 E3.93136
G1 X26.849 Y70.809 E3.9816
G1 X29.38 Y70.131 E4.03089
G1 X33.071 Y70.137 E4.10032
G1 X33.634 Y70.269 E4.1112
G1 X33.613 Y66.051 E4.19054
G1 X34.037 Y63.977 E4.23036
G1 X35.094 Y62.104 E4.27081
G1 X35.761 Y61.253 E4.29115
G1 X36.142 Y60.934 E4.3005
G1 X36.142 Y56.68 E4.38052
G1 X35.287 Y54.972 E4.41645
G1 X35.05 Y53.188 E4.4503
G1 X35.014 Y50.69 E4.4973
G1 X35.604 Y48.678 E4.53674
G1 X36.39 Y47.227 E4.56778
G1 X37.926 Y45.462 E4.61179
G1 X40.418 Y44.074 E4.66545
G1 X42.336 Y43.78 E4.70195
G1 X45.463 Y43.778 E4.76077
G1 X45.919 Y43.746 E4.76937
G1 X47.106 Y43.736 E4.7917
G1 X47.106 Y41.567 E4.8325
G1 X46.251 Y39.859 E4.86842
G1 X46.014 Y38.075 E4.90228
G1 X45.977 Y35.56 E4.94959
G1 X46.568 Y33.677 E4.98671
G1 X47.224 Y32.27 E5.01592
G0 F3600 X47.564 Y32.488
G1 F1800 X49.126 Y30.684 E5.0608
G1 X51.417 Y29.402 E5.11019
G1 X51.7 Y29.308 E5.1158
G1 X53.861 Y29.024 E5.1568
G1 X56.385 Y29.061 E5.20428
G1 X56.561 Y29.083 E5.20761
G1 X57.119 Y29.02 E5.21818
G1 X59.654 Y29.06 E5.26587
G1 X61.519 Y29.346 E5.30136
G1 X63.909 Y30.703 E5.35306
G1 X64.341 Y31.209 E5.36557
G1 X64.818 Y31.248 E5.37458
G1 X65.329 Y31.18 E5.38427
G1 X66.332 Y31.175 E5.40314
G1 X66.968 Y30.368 E5.42247
G1 X68.247 Y29.34 E5.45334
G1 X70.148 Y28.394 E5.49328
G1 X71.898 Y28.162 E5.52648
G1 X74.293 Y28.138 E5.57154
G1 X76.246 Y28.532 E5.60901
G1 X77.735 Y29.317 E5.64068
G1 X83.06 Y29.312 E5.74084
G1 X83.722 Y28.954 E5.755
G1 X85.821 Y28.652 E5.79489
G1 X88.22 Y28.621 E5.84002
G1 X90.27 Y29.131 E5.87976
G1 X91.044 Y29.46 E5.89558
G1 X92.891 Y30.754 E5.938
G1 X94.114 Y32.318 E5.97535
G1 X95.117 Y34.338 E6.01777
G1 X95.347 Y36.076 E6.05075
G1 X95.358 Y38.51 E6.09653
G1 X95.319 Y38.813 E6.10228
G1 X95.384 Y39.538 E6.11597
G1 X95.306 Y41.843 E6.15935
G1 X95.087 Y43.194 E6.1851
G1 X94.818 Y43.778 E6.19719
G1 X95.121 Y44.386 E6.20997
G1 X95.346 Y46.087 E6.24225
G1 X95.361 Y48.505 E6.28773
G1 X95.319 Y48.836 E6.29401
G1 X95.383 Y49.336 E6.30349
G1 X95.389 Y51.532 E6.3448
G1 X95.068 Y53.202 E6.37679
G1 X94.85 Y53.734 E6.3876
G1 X95.121 Y54.279 E6.39905
G1 X95.346 Y55.977 E6.43127
G1 X95.361 Y58.395 E6.47676
G1 X95.319 Y58.726 E6.48303
G1 X95.383 Y59.226 E6.49251
G1 X95.389 Y61.422 E6.53382
G1 X95.06 Y63.133 E6.5666
G1 X94.546 Y64.334 E6.59117
G1 X94.89 Y64.868 E6.60312
G1 X95.387 Y67.371 E6.65112
G1 X95.366 Y69.782 E6.69647
G1 X95.325 Y70.064 E6.70183
G1 X95.373 Y70.502 E6.71012
G1 X95.342 Y72.568 E6.74899
G1 X95.697 Y72.85 E6.75752
G1 X97.079 Y74.482 E6.79775
G1 X97.935 Y76.819 E6.84456
G1 X98.087 Y78.427 E6.87494
G1 X98.058 Y80.398 E6.91202
G1 X98.036 Y80.543 E6.91478
G1 X98.093 Y80.974 E6.92296
G1 X98.101 Y83.401 E6.96861
G1 X97.458 Y85.554 E7.01088
G1 X96.729 Y86.938 E7.04031
G1 X95.499 Y88.381 E7.07597
G1 X93.469 Y89.788 E7.12243
G1 X91.061 Y90.399 E7.16916
G1 X86.133 Y90.4 E7.26186
G1 X84.134 Y89.956 E7.30038
G1 X83.643 Y89.691 E7.31088
G1 X79.339 Y89.68 E7.39184
G1 X78.402 Y90.441 E7.41454
G1 X76.496 Y91.39 E7.45459
G1 X74.753 Y91.621 E7.48767
G1 X70.205 Y91.646 E7.57322
G1 X68.234 Y91.244 E7.61106
G1 X66.521 Y90.287 E7.64797
G1 X65.621 Y89.587 E7.66942
G1 X64.561 Y88.271 E7.7012
G1 X63.654 Y86.446 E7.73954
G1 X63.551 Y85.84 E7.7511
G1 X60.637 Y85.843 E7.80591
G1 X60.295 Y87.509 E7.83791
G1 X59.364 Y89.176 E7.87382
G1 X58.62 Y90.138 E7.8967
G1 X57.333 Y91.172 E7.92775
G1 X55.44 Y92.115 E7.96753
G1 X53.693 Y92.346 E8.00068
G1 X48.984 Y92.371 E8.08926
G1 X47.015 Y91.969 E8.12706
G1 X45.372 Y91.06 E8.16239
G1 X44.583 Y90.457 E8.18106
G1 X44.456 Y90.329 E8.18446
G1 X35.584 Y90.329 E8.35134
G1 X34.44 Y90.904 E8.37543
G1 X32.724 Y91.131 E8.40799
G1 X29.424 Y91.161 E8.47007
G1 X27.539 Y90.653 E8.50679
G1 X26.182 Y89.984 E8.53525
G1 X24.765 Y88.833 E8.56959
G1 X23.838 Y87.616 E8.59837
G1 X22.512 Y85.66 E8.64282
G1 X21.881 Y83.242 E8.68982
G1 X21.917 Y81.315 E8.72608
G1 X22.022 Y80.801 E8.73595
G1 X21.907 Y79.772 E8.75542
G1 X21.922 Y78.066 E8.78752
G1 X22.666 Y75.796 E8.83245
G1 X23.852 Y74.052 E8.87212
G1 X24.939 Y72.635 E8.90572
G1 X27.021 Y71.177 E8.95353
G1 X29.431 Y70.531 E9.00046
G1 X33.027 Y70.537 E9.0681
G1 X34.037 Y70.774 E9.08762
G1 X34.013 Y66.091 E9.17571
G1 X34.416 Y64.119 E9.21357
G1 X35.409 Y62.351 E9.25172
G1 X36.076 Y61.5 E9.27205
G1 X36.542 Y61.126 E9.28329
G1 X36.542 Y56.585 E9.36871
G1 X35.675 Y54.854 E9.40513
G1 X35.447 Y53.135 E9.43775
G1 X35.415 Y50.745 E9.48271
G1 X35.977 Y48.83 E9.52025
G1 X36.72 Y47.458 E9.5496
G1 X38.183 Y45.776 E9.59153
G1 X40.55 Y44.458 E9.6425
G1 X42.337 Y44.18 E9.67651
G1 X45.419 Y44.176 E9.73449
G1 X45.582 Y44.194 E9.73757
G1 X45.971 Y44.143 E9.74495
G1 X47.506 Y44.134 E9.77383
G1 X47.506 Y41.472 E9.8239
G1 X46.639 Y39.741 E9.86032
G1 X46.411 Y38.022 E9.89294
G1 X46.378 Y35.619 E9.93814
G1 X46.931 Y33.846 E9.97308
G1 X47.564 Y32.488 E10.00126
G0 F3600 X47.904 Y32.706
G1 F1800 X49.382 Y30.999 E10.04374
G1 X51.612 Y29.751 E10.0918
G1 X51.753 Y29.704 E10.0946
G1 X53.855 Y29.424 E10.13449
G1 X56.379 Y29.461 E10.18197
G1 X56.553 Y29.487 E10.18528
G1 X57.113 Y29.42 E10.19589
G1 X59.648 Y29.46 E10.24358
G1 X61.385 Y29.73 E10.27665
G1 X63.65 Y31.016 E10.32564
G1 X64.144 Y31.595 E10.33996
G1 X64.827 Y31.65 E10.35285
G1 X65.331 Y31.58 E10.36242
G1 X66.527 Y31.574 E10.38492
G1 X67.255 Y30.65 E10.40705
G1 X68.464 Y29.679 E10.43621
G1 X70.265 Y28.782 E10.47406
G1 X71.95 Y28.559 E10.50603
G1 X74.256 Y28.538 E10.54941
G1 X76.11 Y28.913 E10.58499
G1 X77.636 Y29.717 E10.61744
G1 X83.162 Y29.712 E10.72139
G1 X83.849 Y29.34 E10.73608
G1 X85.826 Y29.052 E10.77366
G1 X88.174 Y29.022 E10.81783
G1 X90.173 Y29.519 E10.85658
G1 X90.845 Y29.809 E10.87035
G1 X92.615 Y31.05 E10.91101
G1 X93.774 Y32.532 E10.9464
G1 X94.728 Y34.454 E10.98676
G1 X94.95 Y36.129 E11.01855
G1 X94.961 Y38.458 E11.06236
G1 X94.916 Y38.803 E11.0689
G1 X94.984 Y39.525 E11.08254
G1 X94.911 Y41.779 E11.12496
G1 X94.701 Y43.077 E11.1497
G1 X94.374 Y43.785 E11.16437
G1 X94.733 Y44.504 E11.17948
G1 X94.949 Y46.139 E11.21051
G1 X94.964 Y48.454 E11.25405
G1 X94.915 Y48.836 E11.2613
G1 X94.986 Y49.387 E11.27175
G1 X94.989 Y51.493 E11.31136
G1 X94.675 Y53.126 E11.34264
G1 X94.41 Y53.747 E11.35534
G1 X94.733 Y54.396 E11.36898
G1 X94.949 Y56.029 E11.39997
G1 X94.964 Y58.344 E11.44351
G1 X94.915 Y58.726 E11.45076
G1 X94.986 Y59.277 E11.46121
G1 X94.989 Y61.383 E11.50082
G1 X94.675 Y63.016 E11.5321
G1 X94.095 Y64.372 E11.55985
G1 X94.513 Y65.021 E11.57437
G1 X94.987 Y67.407 E11.62013
G1 X94.97 Y69.725 E11.66373
G1 X94.922 Y70.058 E11.67006
G1 X94.975 Y70.545 E11.67927
G1 X94.939 Y72.763 E11.721
G1 X95.392 Y73.108 E11.73171
G1 X96.726 Y74.684 E11.77055
G1 X97.542 Y76.911 E11.81517
G1 X97.687 Y78.422 E11.84372
G1 X97.662 Y80.339 E11.87978
G1 X97.632 Y80.539 E11.88359
G1 X97.696 Y81.026 E11.89283
G1 X97.701 Y83.344 E11.93643
G1 X97.086 Y85.402 E11.97683
G1 X96.395 Y86.714 E12.00473
G1 X95.231 Y88.08 E12.03848
G1 X93.3 Y89.418 E12.08268
G1 X91.01 Y89.999 E12.12712
G1 X86.175 Y90 E12.21807
G1 X84.276 Y89.578 E12.25466
G1 X83.745 Y89.291 E12.26601
G1 X79.197 Y89.28 E12.35156
G1 X78.182 Y90.104 E12.37616
G1 X76.379 Y91.002 E12.41404
G1 X74.701 Y91.224 E12.44588
G1 X70.245 Y91.246 E12.5297
G1 X68.375 Y90.864 E12.56561
G1 X66.767 Y89.971 E12.60021
G1 X65.901 Y89.297 E12.62085
G1 X64.9 Y88.055 E12.65085
G1 X64.012 Y86.268 E12.68839
G1 X63.902 Y85.44 E12.7041
G1 X60.311 Y85.443 E12.77165
G1 X59.915 Y87.368 E12.80862
G1 X59.048 Y88.931 E12.84224
G1 X58.333 Y89.856 E12.86423
G1 X57.116 Y90.833 E12.89359
G1 X55.323 Y91.726 E12.93127
G1 X53.64 Y91.949 E12.9632
G1 X49.024 Y91.971 E13.05003
G1 X47.154 Y91.589 E13.08594
G1 X45.615 Y90.742 E13.11898
G1 X44.826 Y90.139 E13.13766
G1 X44.628 Y89.929 E13.14309
G1 X35.49 Y89.929 E13.31498
G1 X34.322 Y90.516 E13.33957
G1 X32.672 Y90.734 E13.37088
G1 X29.474 Y90.761 E13.43103
G1 X27.683 Y90.278 E13.46593
G1 X26.396 Y89.643 E13.49292
G1 X25.054 Y88.553 E13.52544
G1 X24.169 Y87.391 E13.55292
G1 X22.881 Y85.492 E13.59608
G1 X22.282 Y83.195 E13.64073
G1 X22.317 Y81.322 E13.67597
G1 X22.427 Y80.822 E13.6856
G1 X22.305 Y79.728 E13.70631
G1 X22.321 Y78.132 E13.73633
G1 X23.028 Y75.975 E13.77903
G1 X24.169 Y74.296 E13.81722
G1 X25.218 Y72.929 E13.84963
G1 X27.195 Y71.544 E13.89504
G1 X29.482 Y70.931 E13.93957
G1 X32.983 Y70.937 E14.00543
G1 X34.508 Y71.295 E14.0349
G1 X34.435 Y70.747 E14.04529
G1 X34.413 Y66.131 E14.13213
G1 X34.796 Y64.259 E14.16807
G1 X35.724 Y62.598 E14.20386
G1 X36.364 Y61.782 E14.22337
G1 X36.942 Y61.318 E14.23731
G1 X36.942 Y56.451 E14.32886
G1 X36.855 Y56.316 E14.33188
G1 X36.063 Y54.736 E14.36513
G1 X35.844 Y53.082 E14.39651
G1 X35.816 Y50.801 E14.43942
G1 X36.349 Y48.984 E14.47504
G1 X37.053 Y47.685 E14.50283
G1 X38.439 Y46.091 E14.54256
G1 X40.682 Y44.842 E14.59086
G1 X42.338 Y44.58 E14.6224
G1 X45.376 Y44.574 E14.67954
G1 X45.587 Y44.597 E14.68353
G1 X46.023 Y44.54 E14.69181
G1 X47.906 Y44.532 E14.72723
G1 X47.906 Y41.338 E14.78731
G1 X47.819 Y41.203 E14.79033
G1 X47.027 Y39.623 E14.82357
G1 X46.808 Y37.969 E14.85496
G1 X46.779 Y35.677 E14.89808
G1 X47.294 Y34.015 E14.9308
G1 X47.904 Y32.706 E14.95797
G0 F3600 X48.244 Y32.924
G1 F1800 X49.638 Y31.314 E14.99803
G1 X51.807 Y30.1 E15.04479
G1 X53.85 Y29.824 E15.08356
G1 X56.32 Y29.857 E15.13003
G1 X56.548 Y29.891 E15.13437
G1 X57.107 Y29.82 E15.14497
G1 X59.642 Y29.86 E15.19266
G1 X61.251 Y30.114 E15.2233
G1 X63.391 Y31.329 E15.26959
G1 X63.955 Y31.99 E15.28593
G1 X64.498 Y32.006 E15.29615
G1 X64.827 Y32.054 E15.30241
G1 X65.333 Y31.98 E15.31203
G1 X66.771 Y31.973 E15.33908
G1 X66.919 Y31.722 E15.34456
G1 X67.538 Y30.936 E15.36338
G1 X68.683 Y30.016 E15.39101
G1 X70.382 Y29.171 E15.4267
G1 X72.003 Y28.956 E15.45746
G1 X74.218 Y28.938 E15.49912
G1 X75.973 Y29.293 E15.53281
G1 X77.335 Y30.011 E15.56177
G1 X77.483 Y30.117 E15.56519
G1 X83.263 Y30.112 E15.67392
G1 X83.976 Y29.726 E15.68917
G1 X85.831 Y29.452 E15.72444
G1 X88.13 Y29.423 E15.76769
G1 X90.014 Y29.886 E15.80418
G1 X90.646 Y30.159 E15.81713
G1 X92.339 Y31.346 E15.85603
G1 X93.434 Y32.746 E15.88946
G1 X94.34 Y34.571 E15.92779
G1 X94.553 Y36.181 E15.95834
G1 X94.564 Y38.406 E16.00019
G1 X94.513 Y38.794 E16.00755
G1 X94.584 Y39.513 E16.02114
G1 X94.516 Y41.715 E16.06258
G1 X94.314 Y42.961 E16.08633
G1 X93.931 Y43.792 E16.10354
G1 X94.344 Y44.621 E16.12096
G1 X94.552 Y46.192 E16.15077
G1 X94.567 Y48.403 E16.19236
G1 X94.512 Y48.834 E16.20053
G1 X94.586 Y49.388 E16.21105
G1 X94.589 Y51.454 E16.24991
G1 X94.29 Y53.009 E16.2797
G1 X93.969 Y53.76 E16.29506
G1 X94.345 Y54.514 E16.31091
G1 X94.552 Y56.081 E16.34064
G1 X94.567 Y58.293 E16.38225
G1 X94.512 Y58.724 E16.39042
G1 X94.586 Y59.278 E16.40094
G1 X94.589 Y61.344 E16.4398
G1 X94.29 Y62.899 E16.46959
G1 X93.644 Y64.41 E16.5005
G1 X94.136 Y65.174 E16.51759
G1 X94.587 Y67.443 E16.56111
G1 X94.574 Y69.667 E16.60294
G1 X94.518 Y70.052 E16.61026
G1 X94.577 Y70.589 E16.62042
G1 X94.543 Y72.706 E16.66025
G1 X94.512 Y72.94 E16.66469
G1 X95.116 Y73.4 E16.67897
G1 X96.373 Y74.886 E16.71558
G1 X97.149 Y77.003 E16.758
G1 X97.287 Y78.417 E16.78472
G1 X97.266 Y80.28 E16.81977
G1 X97.228 Y80.536 E16.82463
G1 X97.299 Y81.078 E16.83492
G1 X97.301 Y83.286 E16.87645
G1 X96.714 Y85.25 E16.91501
G1 X96.061 Y86.491 E16.94139
G1 X94.963 Y87.779 E16.97322
G1 X93.131 Y89.048 E17.01515
G1 X90.959 Y89.599 E17.0573
G1 X86.217 Y89.6 E17.1465
G1 X84.42 Y89.201 E17.18112
G1 X83.848 Y88.891 E17.19336
G1 X79.055 Y88.88 E17.28352
G1 X77.962 Y89.767 E17.31
G1 X76.262 Y90.613 E17.34572
G1 X74.648 Y90.827 E17.37634
G1 X70.285 Y90.846 E17.45841
G1 X68.514 Y90.484 E17.49242
G1 X67.013 Y89.655 E17.52467
G1 X66.181 Y89.007 E17.54451
G1 X65.239 Y87.839 E17.57273
G1 X64.4 Y86.151 E17.60819
G1 X64.253 Y85.04 E17.62927
G1 X60.238 Y85.043 E17.7048
G1 X59.897 Y84.981 E17.71132
G1 X59.889 Y85.507 E17.72121
G1 X59.535 Y87.228 E17.75426
G1 X58.698 Y88.737 E17.78672
G1 X58.048 Y89.571 E17.80661
G1 X56.897 Y90.496 E17.83439
G1 X55.206 Y91.338 E17.86992
G1 X53.588 Y91.552 E17.90062
G1 X49.064 Y91.571 E17.98572
G1 X47.294 Y91.209 E18.01971
G1 X45.858 Y90.424 E18.05049
G1 X45.069 Y89.821 E18.06917
G1 X44.807 Y89.529 E18.07655
G1 X35.395 Y89.529 E18.25359
G1 X34.204 Y90.128 E18.27867
G1 X32.62 Y90.337 E18.30873
G1 X29.524 Y90.361 E18.36697
G1 X27.827 Y89.903 E18.40003
G1 X26.613 Y89.304 E18.42549
G1 X25.341 Y88.271 E18.45632
G1 X24.5 Y87.167 E18.48242
G1 X23.251 Y85.325 E18.52429
G1 X22.683 Y83.148 E18.56661
G1 X22.716 Y81.371 E18.60004
G1 X22.832 Y80.845 E18.61017
G1 X22.705 Y79.732 E18.63124
G1 X22.72 Y78.198 E18.6601
