;FLAVOR:Marlin
;TIME:21285
;Filament used: 5.18696m
;Layer height: 0.1
;MINX:5.966
;MINY:15.295
;MINZ:0.3
;MAXX:114.036
;MAXY:105.705
;MAXZ:20.7
;TARGET_MACHINE.NAME:Unknown
;Generated with Cura_SteamEngine 5.7.0
M140 S60
M105
M190 S60
M104 S200
M105
M109 S200
M82 ;absolute extrusion mode
G28 ;Home
G1 Z15.0 F6000 ;Move the platform down 15mm
;Prime the extruder
G92 E0
G1 F200 E3
G92 E0
G92 E0
G92 E0
G1 F1500 E-6.5
;LAYER_COUNT:205
;LAYER:0
M107
G0 F3600 X9.509 Y16.555 Z0.3
;TYPE:SKIRT
G1 F1500 E0
G1 F1800 X11.488 Y15.569 E0.04159
G1 X13.012 Y15.347 E0.07056
G1 X106.858 Y15.295 E1.83586
G1 X108.915 Y15.717 E1.87536
G1 X110.686 Y16.712 E1.91357
G1 X111.684 Y17.485 E1.93731
G1 X112.776 Y18.838 E1.97002
G1 X113.762 Y20.817 E2.01161
G1 X113.984 Y22.341 E2.04058
G1 X114.036 Y97.527 E3.45487
G1 X113.614 Y99.584 E3.49437
G1 X112.619 Y101.355 E3.53258
G1 X111.845 Y102.356 E3.55638
G1 X110.491 Y103.443 E3.58904
G1 X108.493 Y104.438 E3.63103
G1 X106.682 Y104.678 E3.66539
G1 X103.607 Y104.705 E3.72324
G1 X101.596 Y104.295 E3.76184
G1 X101.053 Y104.021 E3.77328
G1 X100.888 Y104.164 E3.77739
G1 X99.801 Y104.881 E3.80189
G1 X97.853 Y105.649 E3.84127
G1 X97.603 Y105.705 E3.84609
G1 X23.126 Y105.705 E5.24705
G1 X20.935 Y105.246 E5.28916
G1 X19.21 Y104.274 E5.3264
G1 X18.901 Y104.009 E5.33406
G1 X18.035 Y104.439 E5.35225
G1 X16.228 Y104.678 E5.38653
G1 X13.165 Y104.705 E5.44415
G1 X11.088 Y104.281 E5.48403
G1 X9.215 Y103.224 E5.52448
G1 X8.332 Y102.533 E5.54557
G1 X7.223 Y101.156 E5.57883
G1 X6.239 Y99.182 E5.62032
G1 X6.017 Y97.659 E5.64927
G1 X5.966 Y22.473 E7.06356
G1 X6.388 Y20.416 E7.10306
G1 X7.383 Y18.645 E7.14127
G1 X8.156 Y17.647 E7.16502
G1 X9.509 Y16.555 E7.19772
G0 F3600 X9.726 Y16.894
G1 F1800 X11.608 Y15.956 E7.23728
G1 X13.07 Y15.743 E7.26507
G1 X106.817 Y15.695 E9.0285
G1 X108.774 Y16.097 E9.06609
G1 X110.441 Y17.028 E9.102
G1 X111.403 Y17.773 E9.12489
G1 X112.437 Y19.055 E9.15587
G1 X113.375 Y20.937 E9.19543
G1 X113.588 Y22.399 E9.22322
G1 X113.636 Y97.486 E10.63564
G1 X113.234 Y99.443 E10.67323
G1 X112.303 Y101.11 E10.70914
G1 X111.559 Y102.072 E10.73202
G1 X110.272 Y103.106 E10.76307
G1 X108.376 Y104.05 E10.80291
G1 X106.63 Y104.281 E10.83604
G1 X103.646 Y104.305 E10.89218
G1 X101.676 Y103.903 E10.93
G1 X100.999 Y103.536 E10.94448
G1 X100.625 Y103.862 E10.95381
G1 X99.618 Y104.523 E10.97647
G1 X97.706 Y105.277 E11.01513
G1 X97.559 Y105.305 E11.01795
G1 X23.165 Y105.305 E12.41734
G1 X21.08 Y104.868 E12.45741
G1 X19.406 Y103.925 E12.49356
G1 X18.966 Y103.53 E12.50468
G1 X17.919 Y104.05 E12.52667
G1 X16.175 Y104.281 E12.55976
G1 X13.204 Y104.305 E12.61565
G1 X11.23 Y103.902 E12.65355
G1 X9.462 Y102.909 E12.69169
G1 X8.615 Y102.246 E12.71192
G1 X7.56 Y100.936 E12.74356
G1 X6.626 Y99.062 E12.78295
G1 X6.413 Y97.601 E12.81072
G1 X6.366 Y22.514 E14.22315
G1 X6.768 Y20.557 E14.26073
G1 X7.699 Y18.89 E14.29665
G1 X8.444 Y17.928 E14.31953
G1 X9.726 Y16.894 E14.35052
G0 F3600 X9.943 Y17.233
G1 F1800 X11.728 Y16.343 E14.38803
G1 X13.128 Y16.139 E14.41465
G1 X106.775 Y16.095 E16.1762
G1 X108.633 Y16.477 E16.21188
G1 X110.196 Y17.344 E16.2455
G1 X111.122 Y18.061 E16.26753
G1 X112.098 Y19.272 E16.29679
G1 X112.988 Y21.057 E16.33431
G1 X113.192 Y22.457 E16.36092
G1 X113.236 Y97.444 E17.77147
G1 X112.854 Y99.302 E17.80715
G1 X111.987 Y100.865 E17.84077
G1 X111.272 Y101.79 E17.86276
G1 X110.055 Y102.767 E17.89212
G1 X108.259 Y103.661 E17.92986
G1 X106.577 Y103.884 E17.96177
G1 X103.685 Y103.905 E18.01617
G1 X101.816 Y103.523 E18.05206
G1 X100.946 Y103.051 E18.07068
G1 X100.362 Y103.56 E18.08525
G1 X99.434 Y104.165 E18.10609
G1 X97.559 Y104.905 E18.144
G1 X23.204 Y104.905 E19.54266
G1 X21.225 Y104.49 E19.5807
G1 X19.637 Y103.596 E19.61498
G1 X19.031 Y103.051 E19.63031
G1 X17.802 Y103.662 E19.65613
G1 X16.123 Y103.884 E19.68799
G1 X13.243 Y103.905 E19.74216
G1 X11.37 Y103.522 E19.77812
G1 X9.709 Y102.594 E19.81391
G1 X8.896 Y101.957 E19.83334
G1 X7.899 Y100.72 E19.86323
G1 X7.013 Y98.942 E19.90059
G1 X6.809 Y97.543 E19.92719
G1 X6.766 Y22.556 E21.33774
G1 X7.148 Y20.698 E21.37342
G1 X8.015 Y19.135 E21.40704
G1 X8.732 Y18.209 E21.42907
G1 X9.943 Y17.233 E21.45832
G0 F3600 X10.163 Y17.57
G1 F1800 X11.848 Y16.73 E21.49374
G1 X13.186 Y16.535 E21.51917
G1 X106.733 Y16.495 E23.27885
G1 X108.493 Y16.857 E23.31265
G1 X110.002 Y17.694 E23.3451
G1 X110.838 Y18.346 E23.36505
G1 X111.761 Y19.492 E23.39273
G1 X112.601 Y21.177 E23.42814
G1 X112.796 Y22.515 E23.45358
G1 X112.836 Y97.402 E24.86224
G1 X112.474 Y99.162 E24.89604
G1 X111.637 Y100.671 E24.9285
G1 X110.987 Y101.505 E24.94839
G1 X109.836 Y102.43 E24.97617
G1 X108.142 Y103.273 E25.01176
G1 X106.525 Y103.487 E25.04244
G1 X103.724 Y103.505 E25.09513
G1 X101.956 Y103.143 E25.12908
G1 X100.893 Y102.566 E25.15183
G1 X100.099 Y103.258 E25.17164
G1 X99.25 Y103.808 E25.19067
G1 X97.483 Y104.505 E25.2264
G1 X23.243 Y104.505 E26.6229
G1 X21.37 Y104.112 E26.6589
G1 X19.871 Y103.268 E26.69126
G1 X19.096 Y102.572 E26.71085
G1 X17.686 Y103.273 E26.74047
G1 X16.07 Y103.487 E26.77113
G1 X13.282 Y103.505 E26.82358
G1 X11.511 Y103.143 E26.85758
G1 X9.956 Y102.279 E26.89104
G1 X9.177 Y101.668 E26.90967
G1 X8.238 Y100.503 E26.93781
G1 X7.4 Y98.822 E26.97314
G1 X7.205 Y97.485 E26.99856
G1 X7.166 Y22.598 E28.40723
G1 X7.528 Y20.838 E28.44103
G1 X8.365 Y19.329 E28.47349
G1 X9.017 Y18.493 E28.49343
G1 X10.163 Y17.57 E28.52111
G0 F3600 X10.383 Y17.907
G1 F1800 X9.301 Y18.778 E28.54724
G1 X8.715 Y19.523 E28.56507
G1 X7.908 Y20.978 E28.59636
G1 X7.566 Y22.64 E28.62828
G1 X7.601 Y97.427 E30.03507
G1 X7.787 Y98.702 E30.0593
G1 X8.575 Y100.283 E30.09253
G1 X9.46 Y101.382 E30.11907
G1 X10.203 Y101.964 E30.13683
G1 X11.65 Y102.763 E30.16792
G1 X13.322 Y103.105 E30.20002
G1 X16.017 Y103.09 E30.25072
G1 X17.57 Y102.884 E30.28019
G1 X19.162 Y102.093 E30.31363
G1 X20.108 Y102.943 E30.33755
G1 X21.512 Y103.734 E30.36786
G1 X23.282 Y104.105 E30.40188
G1 X97.407 Y104.105 E31.79621
G1 X99.065 Y103.451 E31.82974
G1 X99.836 Y102.956 E31.84697
G1 X100.84 Y102.081 E31.87203
G1 X102.096 Y102.763 E31.89891
G1 X103.764 Y103.105 E31.93094
G1 X106.472 Y103.09 E31.98188
G1 X108.025 Y102.884 E32.01135
G1 X109.619 Y102.091 E32.04484
G1 X110.701 Y101.222 E32.07094
G1 X111.287 Y100.477 E32.08877
G1 X112.094 Y99.022 E32.12007
G1 X112.436 Y97.36 E32.15199
G1 X112.4 Y22.573 E33.55877
G1 X112.214 Y21.297 E33.58303
G1 X111.424 Y19.712 E33.61634
G1 X110.553 Y18.63 E33.64247
G1 X109.808 Y18.044 E33.6603
G1 X108.353 Y17.237 E33.6916
G1 X106.691 Y16.895 E33.72351
G1 X13.244 Y16.931 E35.4813
G1 X11.968 Y17.117 E35.50556
G1 X10.383 Y17.907 E35.53887
G0 F3600 X10.601 Y18.246
G1 F1800 X12.089 Y17.504 E35.57015
G1 X13.302 Y17.327 E35.59321
G1 X106.649 Y17.295 E37.34912
G1 X108.213 Y17.617 E37.37915
G1 X109.614 Y18.394 E37.40929
G1 X110.268 Y18.915 E37.42502
G1 X111.085 Y19.93 E37.44953
G1 X111.827 Y21.418 E37.4808
G1 X112.004 Y22.631 E37.50386
G1 X112.036 Y97.318 E38.90877
G1 X111.714 Y98.882 E38.9388
G1 X110.937 Y100.283 E38.96894
G1 X110.416 Y100.937 E38.98467
G1 X109.4 Y101.754 E39.00919
G1 X107.908 Y102.496 E39.04054
G1 X106.42 Y102.693 E39.06877
G1 X103.804 Y102.705 E39.11798
G1 X102.233 Y102.383 E39.14815
G1 X100.786 Y101.597 E39.17912
G1 X99.573 Y102.654 E39.20939
G1 X98.882 Y103.093 E39.22479
G1 X97.331 Y103.705 E39.25615
G1 X23.321 Y103.705 E40.64832
G1 X21.657 Y103.356 E40.6803
G1 X20.339 Y102.614 E40.70875
G1 X19.349 Y101.724 E40.73379
G1 X19.212 Y101.54 E40.73811
G1 X18.904 Y101.775 E40.7454
G1 X17.453 Y102.496 E40.77587
G1 X15.965 Y102.693 E40.80411
G1 X13.362 Y102.705 E40.85307
G1 X11.79 Y102.383 E40.88326
G1 X10.45 Y101.649 E40.912
G1 X9.741 Y101.093 E40.92894
G1 X8.914 Y100.067 E40.95373
G1 X8.174 Y98.582 E40.98494
G1 X7.997 Y97.369 E41.008
G1 X7.966 Y22.682 E42.41291
G1 X8.288 Y21.118 E42.44294
G1 X9.065 Y19.717 E42.47308
G1 X9.586 Y19.063 E42.48881
G1 X10.601 Y18.246 E42.51332
G0 F3600 X10.821 Y18.583
G1 F1800 X9.87 Y19.349 E42.53629
G1 X9.378 Y19.966 E42.55113
G1 X8.668 Y21.257 E42.57885
G1 X8.366 Y22.724 E42.60702
G1 X8.393 Y97.311 E44.01004
G1 X8.561 Y98.462 E44.03192
G1 X9.253 Y99.851 E44.06111
G1 X10.022 Y100.804 E44.08415
G1 X10.697 Y101.334 E44.10029
G1 X11.928 Y102.003 E44.12665
G1 X13.402 Y102.305 E44.15495
G1 X15.963 Y102.293 E44.20312
G1 X17.334 Y102.109 E44.22914
G1 X18.726 Y101.417 E44.25839
G1 X19.302 Y100.953 E44.2723
G1 X19.616 Y101.426 E44.28298
G1 X20.573 Y102.286 E44.30718
G1 X21.802 Y102.978 E44.33371
G1 X23.36 Y103.305 E44.36366
G1 X97.255 Y103.305 E45.75366
G1 X98.697 Y102.736 E45.78282
G1 X99.358 Y102.316 E45.79755
G1 X100.54 Y101.28 E45.82712
G1 X100.714 Y101.001 E45.8333
G1 X101.139 Y101.334 E45.84346
G1 X102.37 Y102.003 E45.86982
G1 X103.844 Y102.305 E45.89812
G1 X106.418 Y102.293 E45.94654
G1 X107.789 Y102.109 E45.97256
G1 X109.181 Y101.417 E46.0018
G1 X110.132 Y100.651 E46.02477
G1 X110.624 Y100.034 E46.03961
G1 X111.334 Y98.743 E46.06733
G1 X111.636 Y97.276 E46.0955
G1 X111.608 Y22.689 E47.49852
G1 X111.44 Y21.538 E47.52041
G1 X110.748 Y20.15 E47.54958
G1 X109.982 Y19.199 E47.57255
G1 X109.365 Y18.707 E47.58739
G1 X108.074 Y17.997 E47.61511
G1 X106.607 Y17.695 E47.64328
G1 X13.36 Y17.723 E49.39731
G1 X12.209 Y17.891 E49.41919
G1 X10.821 Y18.583 E49.44836
G0 F3600 X11.037 Y18.922
G1 F1800 X12.329 Y18.278 E49.47552
G1 X13.418 Y18.119 E49.49622
G1 X106.565 Y18.095 E51.24837
G1 X107.936 Y18.377 E51.2747
G1 X109.116 Y19.02 E51.29998
G1 X109.699 Y19.485 E51.314
G1 X110.409 Y20.366 E51.33529
G1 X111.053 Y21.658 E51.36244
G1 X111.212 Y22.747 E51.38314
G1 X111.236 Y97.234 E52.78429
G1 X110.954 Y98.605 E52.81062
G1 X110.311 Y99.785 E52.83589
G1 X109.846 Y100.368 E52.84992
G1 X108.965 Y101.078 E52.8712
G1 X107.67 Y101.722 E52.89841
G1 X106.416 Y101.893 E52.92222
G1 X103.884 Y101.905 E52.96985
G1 X102.508 Y101.623 E52.99627
G1 X101.386 Y101.019 E53.02024
G1 X100.78 Y100.544 E53.03472
G1 X100.603 Y100.34 E53.0398
G1 X100.275 Y100.98 E53.05333
G1 X99.143 Y101.978 E53.08172
G1 X98.512 Y102.379 E53.09578
G1 X97.179 Y102.905 E53.12273
G1 X23.399 Y102.905 E54.51058
G1 X21.947 Y102.6 E54.53849
G1 X20.804 Y101.957 E54.56316
G1 X19.883 Y101.129 E54.58645
G1 X19.402 Y100.359 E54.60353
G1 X18.51 Y101.078 E54.62508
G1 X17.215 Y101.722 E54.65229
G1 X15.961 Y101.893 E54.67609
G1 X13.442 Y101.905 E54.72348
G1 X12.066 Y101.623 E54.7499
G1 X10.944 Y101.019 E54.77387
G1 X10.303 Y100.516 E54.7892
G1 X9.592 Y99.634 E54.81051
G1 X8.948 Y98.342 E54.83766
G1 X8.789 Y97.253 E54.85836
G1 X8.766 Y22.766 E56.2595
G1 X9.048 Y21.395 E56.28583
G1 X9.691 Y20.215 E56.31111
G1 X10.156 Y19.632 E56.32514
G1 X11.037 Y18.922 E56.34642
G0 F3600 X11.257 Y19.259
G1 F1800 X12.449 Y18.665 E56.37148
G1 X13.476 Y18.515 E56.391
G1 X106.523 Y18.495 E58.14126
G1 X107.798 Y18.757 E58.16575
G1 X108.867 Y19.333 E58.18859
G1 X109.414 Y19.769 E58.20175
G1 X110.072 Y20.586 E58.22148
G1 X110.666 Y21.778 E58.24653
G1 X110.816 Y22.805 E58.26606
G1 X110.836 Y97.192 E59.66532
G1 X110.574 Y98.467 E59.6898
G1 X109.998 Y99.536 E59.71264
G1 X109.562 Y100.083 E59.7258
G1 X108.745 Y100.741 E59.74553
G1 X107.551 Y101.335 E59.77062
G1 X106.414 Y101.493 E59.79221
G1 X103.924 Y101.505 E59.83905
G1 X102.646 Y101.243 E59.86359
G1 X101.576 Y100.667 E59.88645
G1 X101.029 Y100.231 E59.89961
G1 X100.528 Y99.609 E59.91463
G1 X99.953 Y100.73 E59.93833
G1 X98.928 Y101.64 E59.96411
G1 X98.327 Y102.022 E59.97751
G1 X97.103 Y102.505 E60.00226
G1 X23.438 Y102.505 E61.38794
G1 X22.092 Y102.222 E61.41381
G1 X21.035 Y101.628 E61.43662
G1 X20.193 Y100.871 E61.45792
G1 X19.443 Y99.669 E61.48457
G1 X19.076 Y100.108 E61.49533
G1 X18.29 Y100.741 E61.51432
G1 X17.096 Y101.335 E61.5394
G1 X15.959 Y101.493 E61.561
G1 X13.482 Y101.505 E61.60759
G1 X12.204 Y101.243 E61.63213
G1 X11.134 Y100.667 E61.65499
G1 X10.587 Y100.231 E61.66815
G1 X9.929 Y99.414 E61.68788
G1 X9.335 Y98.222 E61.71293
G1 X9.185 Y97.195 E61.73245
G1 X9.166 Y22.808 E63.13172
G1 X9.428 Y21.533 E63.1562
G1 X10.004 Y20.464 E63.17904
G1 X10.44 Y19.917 E63.1922
G1 X11.257 Y19.259 E63.21193
G0 F3600 X11.477 Y19.596
G1 F1800 X12.569 Y19.052 E63.23488
G1 X13.534 Y18.911 E63.25323
G1 X106.482 Y18.895 E65.00163
G1 X107.66 Y19.137 E65.02425
G1 X108.677 Y19.685 E65.04598
G1 X109.127 Y20.051 E65.05689
G1 X109.735 Y20.806 E65.07513
G1 X110.279 Y21.898 E65.09808
G1 X110.42 Y22.863 E65.11642
G1 X110.436 Y97.151 E66.51382
G1 X110.194 Y98.329 E66.53644
G1 X109.646 Y99.346 E66.55817
G1 X109.28 Y99.796 E66.56908
G1 X108.525 Y100.404 E66.58732
G1 X107.432 Y100.948 E66.61028
G1 X106.412 Y101.093 E66.62966
G1 X103.964 Y101.105 E66.67571
G1 X102.784 Y100.863 E66.69837
G1 X101.766 Y100.315 E66.72012
G1 X101.316 Y99.949 E66.73103
G1 X100.708 Y99.194 E66.74926
G1 X100.391 Y98.557 E66.76265
G1 X100.32 Y99.137 E66.77364
G1 X99.631 Y100.482 E66.80207
G1 X98.713 Y101.302 E66.82522
G1 X98.142 Y101.665 E66.83795
G1 X97.027 Y102.105 E66.8605
G1 X23.477 Y102.105 E68.24401
G1 X22.237 Y101.844 E68.26785
G1 X21.266 Y101.299 E68.28879
G1 X20.503 Y100.613 E68.30809
G1 X19.828 Y99.53 E68.3321
G1 X19.718 Y99.24 E68.33793
G1 X19.607 Y98.577 E68.35058
G1 X19.191 Y99.346 E68.36702
G1 X18.825 Y99.796 E68.37794
G1 X18.07 Y100.404 E68.39617
G1 X16.977 Y100.948 E68.41914
G1 X15.957 Y101.093 E68.43852
G1 X13.522 Y101.105 E68.48432
G1 X12.342 Y100.863 E68.50698
G1 X11.324 Y100.315 E68.52873
G1 X10.874 Y99.949 E68.53964
G1 X10.266 Y99.194 E68.55787
G1 X9.722 Y98.102 E68.58082
G1 X9.581 Y97.137 E68.59916
G1 X9.566 Y22.849 E69.99656
G1 X9.808 Y21.671 E70.01918
G1 X10.356 Y20.654 E70.04092
G1 X10.722 Y20.204 E70.05183
G1 X11.477 Y19.596 E70.07006
G1 F1500 E63.57006
G0 F3600 X13.112 Y97.558
G0 X16.434 Y97.558
G0 X19.982 Y29.295
G1 F1500 E70.07006
G1 F1800 X19.982 Y31.377 E70.10922
G1 X20.373 Y30.654 E70.12469
G1 X20.739 Y30.204 E70.1356
G1 X21.494 Y29.596 E70.15383
G1 X22.098 Y29.295 E70.16653
G1 X19.982 Y29.295 E70.20633
G1 F1500 E63.70633
G0 F3600 X97.926 Y29.295
G1 F1500 E70.20633
G1 F1800 X98.647 Y29.685 E70.22175
G1 X99.097 Y30.051 E70.23266
G1 X99.705 Y30.806 E70.25089
G1 X100.006 Y31.411 E70.2636
G1 X100.006 Y29.295 E70.30341
G1 X97.926 Y29.295 E70.34253
G0 F3600 X97.492 Y29.517
G1 F1800 X96.411 Y29.295 E70.36329
G1 X23.609 Y29.307 E71.73274
G1 X22.706 Y29.439 E71.74991
G1 X21.714 Y29.933 E71.77075
G1 X20.99 Y30.516 E71.78824
G1 X20.688 Y30.901 E71.79744
G1 X20.205 Y31.809 E71.81679
G1 X19.983 Y32.89 E71.83755
G1 X19.981 Y96.895 E73.04152
G1 X19.914 Y97.986 E73.06208
G1 X20.113 Y99.174 E73.08473
G1 X20.168 Y99.319 E73.08765
G1 X20.814 Y100.356 E73.11063
G1 X21.497 Y100.97 E73.12791
G1 X22.382 Y101.466 E73.14699
G1 X23.516 Y101.705 E73.16879
G1 X96.951 Y101.705 E74.55015
G1 X97.957 Y101.308 E74.57049
G1 X98.498 Y100.964 E74.58255
G1 X99.309 Y100.235 E74.60306
G1 X99.932 Y99.018 E74.62878
G1 X100.08 Y97.796 E74.65193
G1 X100.007 Y97.063 E74.66579
G1 X99.994 Y32.921 E75.87234
G1 X99.862 Y32.018 E75.8895
G1 X99.368 Y31.026 E75.91035
G1 X98.785 Y30.302 E75.92783
G1 X98.4 Y30 E75.93704
G1 X97.492 Y29.517 E75.95638
G1 F1500 E69.45638
G0 F3600 X100.406 Y28.895
G1 F1500 E75.95638
G1 F1800 X19.582 Y28.895 E77.47673
G1 X19.581 Y97.11 E78.75989
G1 X19.359 Y98.191 E78.78065
G1 X18.876 Y99.099 E78.8
G1 X18.574 Y99.484 E78.8092
G1 X17.85 Y100.067 E78.82669
G1 X16.858 Y100.561 E78.84753
G1 X15.955 Y100.693 E78.8647
G1 X13.562 Y100.705 E78.90971
G1 X12.479 Y100.483 E78.93051
G1 X11.571 Y100 E78.94985
G1 X11.186 Y99.698 E78.95906
G1 X10.603 Y98.974 E78.97654
G1 X10.109 Y97.982 E78.99739
G1 X9.977 Y97.079 E79.01456
G1 X9.966 Y22.89 E80.41009
G1 X10.188 Y21.809 E80.43085
G1 X10.671 Y20.901 E80.4502
G1 X10.973 Y20.516 E80.4594
G1 X11.697 Y19.933 E80.47689
G1 X12.689 Y19.439 E80.49773
G1 X13.592 Y19.307 E80.5149
G1 X106.441 Y19.295 E82.26144
G1 X107.522 Y19.517 E82.2822
G1 X108.43 Y20 E82.30154
G1 X108.815 Y20.302 E82.31075
G1 X109.398 Y21.026 E82.32823
G1 X109.892 Y22.018 E82.34908
G1 X110.024 Y22.921 E82.36625
G1 X110.036 Y97.11 E83.76178
G1 X109.814 Y98.191 E83.78254
G1 X109.331 Y99.099 E83.80189
G1 X109.029 Y99.484 E83.81109
G1 X108.305 Y100.067 E83.82858
G1 X107.313 Y100.561 E83.84942
G1 X106.41 Y100.693 E83.86659
G1 X104.004 Y100.705 E83.91185
G1 X102.921 Y100.483 E83.93264
