;FLAVOR:Marlin
;TIME:3283
;Filament used: 0.751388m
;Layer height: 0.1
;MINX:24.769
;MINY:22.771
;MINZ:0.3
;MAXX:97.556
;MAXY:89.371
;MAXZ:6
;TARGET_MACHINE.NAME:Unknown
;Generated with Cura_SteamEngine 5.7.0
M140 S60
M105
M190 S60
M104 S200
M105
M109 S200
M82 ;absolute extrusion mode
G28 ;Home
G1 Z15.0 F6000 ;Move the platform down 15mm
;Prime the extruder
G92 E0
G1 F200 E3
G92 E0
G92 E0
G92 E0
G1 F1500 E-6.5
;LAYER_COUNT:58
;LAYER:0
M107
G0 F3600 X26.959 Y25.124 Z0.3
;TYPE:SKIRT
G1 F1500 E0
G1 F1800 X28.313 Y24.031 E0.03273
G1 X30.292 Y23.045 E0.07432
G1 X31.816 Y22.823 E0.10329
G1 X50.416 Y22.771 E0.45317
G1 X51.142 Y22.923 E0.46712
G1 X51.816 Y22.823 E0.47994
G1 X70.416 Y22.771 E0.82982
G1 X71.142 Y22.923 E0.84377
G1 X71.816 Y22.823 E0.85659
G1 X90.409 Y22.771 E1.20633
G1 X92.467 Y23.194 E1.24586
G1 X94.346 Y24.26 E1.28649
G1 X95.227 Y24.95 E1.30754
G1 X96.332 Y26.327 E1.34075
G1 X97.327 Y28.327 E1.38277
G1 X97.556 Y30.057 E1.4156
G1 X97.536 Y32.266 E1.45715
G1 X97.31 Y33.775 E1.48585
G1 X96.786 Y34.956 E1.51016
G1 X96.786 Y52.193 E1.8344
G1 X96.364 Y54.249 E1.87388
G1 X95.665 Y55.499 E1.90082
G1 X96.33 Y56.325 E1.92076
G1 X97.327 Y58.327 E1.96283
G1 X97.556 Y60.057 E1.99566
G1 X97.536 Y62.266 E2.03721
G1 X97.31 Y63.775 E2.06592
G1 X96.786 Y64.956 E2.09022
G1 X96.786 Y82.193 E2.41446
G1 X96.364 Y84.25 E2.45396
G1 X95.369 Y86.021 E2.49217
G1 X94.596 Y87.019 E2.51591
G1 X93.243 Y88.111 E2.54862
G1 X91.264 Y89.097 E2.59021
G1 X89.74 Y89.319 E2.61918
G1 X72.878 Y89.371 E2.93636
G1 X71.26 Y89.042 E2.96742
G1 X70.957 Y89.142 E2.97342
G1 X69.74 Y89.319 E2.99656
G1 X52.866 Y89.371 E3.31397
G1 X50.807 Y88.949 E3.3535
G1 X49.036 Y87.954 E3.39172
G1 X48.038 Y87.181 E3.41546
G1 X46.946 Y85.828 E3.44817
G1 X45.96 Y83.849 E3.48976
G1 X45.738 Y82.325 E3.51873
G1 X45.686 Y65.125 E3.84227
G1 X45.038 Y63.834 E3.86944
G1 X44.796 Y62.011 E3.90404
G1 X44.768 Y59.978 E3.94228
G1 X44.894 Y59.358 E3.95418
G1 X32.864 Y59.371 E4.18047
G1 X30.807 Y58.949 E4.21997
G1 X29.036 Y57.954 E4.25818
G1 X28.038 Y57.181 E4.28193
G1 X26.946 Y55.828 E4.31463
G1 X25.96 Y53.849 E4.35623
G1 X25.738 Y52.325 E4.3852
G1 X25.686 Y35.125 E4.70874
G1 X25.038 Y33.834 E4.73591
G1 X24.796 Y32.011 E4.7705
G1 X24.769 Y29.98 E4.80871
G1 X25.194 Y27.882 E4.84898
G1 X26.119 Y26.22 E4.88476
G1 X26.959 Y25.124 E4.91073
G0 F3600 X27.248 Y25.404
G1 F1800 X28.53 Y24.37 E4.94171
G1 X30.412 Y23.432 E4.98127
G1 X31.874 Y23.219 E5.00906
G1 X50.373 Y23.171 E5.35704
G1 X51.129 Y23.329 E5.37156
G1 X51.874 Y23.219 E5.38573
G1 X70.373 Y23.171 E5.73371
G1 X71.129 Y23.329 E5.74824
G1 X71.874 Y23.219 E5.7624
G1 X90.367 Y23.171 E6.11027
G1 X92.326 Y23.574 E6.14789
G1 X94.099 Y24.575 E6.18619
G1 X94.945 Y25.238 E6.20641
G1 X95.993 Y26.544 E6.2379
G1 X96.939 Y28.444 E6.27783
G1 X97.159 Y30.109 E6.30942
G1 X97.14 Y32.207 E6.34889
G1 X96.922 Y33.663 E6.37658
G1 X96.386 Y34.871 E6.40144
G1 X96.386 Y52.152 E6.7265
G1 X95.984 Y54.109 E6.76409
G1 X95.184 Y55.54 E6.79492
G1 X95.993 Y56.545 E6.81919
G1 X96.939 Y58.444 E6.8591
G1 X97.159 Y60.109 E6.89069
G1 X97.14 Y62.207 E6.93016
G1 X96.922 Y63.663 E6.95785
G1 X96.386 Y64.871 E6.98271
G1 X96.386 Y82.152 E7.30778
G1 X95.984 Y84.109 E7.34536
G1 X95.053 Y85.776 E7.38127
G1 X94.308 Y86.738 E7.40416
G1 X93.026 Y87.772 E7.43514
G1 X91.144 Y88.71 E7.4747
G1 X89.682 Y88.923 E7.50249
G1 X72.918 Y88.971 E7.81783
G1 X71.231 Y88.628 E7.85021
G1 X70.899 Y88.746 E7.85684
G1 X69.682 Y88.923 E7.87997
G1 X52.906 Y88.971 E8.19554
G1 X50.948 Y88.569 E8.23314
G1 X49.281 Y87.638 E8.26906
G1 X48.319 Y86.893 E8.29195
G1 X47.285 Y85.611 E8.32293
G1 X46.347 Y83.729 E8.36248
G1 X46.134 Y82.267 E8.39027
G1 X46.086 Y65.03 E8.71451
G1 X45.426 Y63.717 E8.74215
G1 X45.193 Y61.958 E8.77553
G1 X45.169 Y60.016 E8.81206
G1 X45.384 Y58.957 E8.83239
G1 X32.905 Y58.971 E9.06713
G1 X30.948 Y58.569 E9.10471
G1 X29.281 Y57.638 E9.14062
G1 X28.319 Y56.893 E9.16351
G1 X27.285 Y55.611 E9.19449
G1 X26.347 Y53.729 E9.23405
G1 X26.134 Y52.267 E9.26184
G1 X26.086 Y35.03 E9.58608
G1 X25.426 Y33.717 E9.61372
G1 X25.193 Y31.958 E9.6471
G1 X25.17 Y30.017 E9.68361
G1 X25.573 Y28.025 E9.72184
G1 X26.469 Y26.415 E9.7565
G1 X27.248 Y25.404 E9.78051
G0 F3600 X27.536 Y25.685
G1 F1800 X28.747 Y24.709 E9.80977
G1 X30.532 Y23.819 E9.84729
G1 X31.932 Y23.615 E9.8739
G1 X50.33 Y23.571 E10.21998
G1 X51.116 Y23.735 E10.23508
G1 X51.932 Y23.615 E10.25059
G1 X70.33 Y23.571 E10.59667
G1 X71.116 Y23.735 E10.61178
G1 X71.932 Y23.615 E10.62729
G1 X90.325 Y23.571 E10.97327
G1 X92.184 Y23.953 E11.00897
G1 X93.852 Y24.89 E11.04496
G1 X94.663 Y25.526 E11.06435
G1 X95.654 Y26.761 E11.09413
G1 X96.55 Y28.561 E11.13195
G1 X96.762 Y30.162 E11.16233
G1 X96.744 Y32.148 E11.19969
G1 X96.534 Y33.551 E11.22638
G1 X95.986 Y34.786 E11.25179
G1 X95.986 Y52.11 E11.57767
G1 X95.604 Y53.969 E11.61337
G1 X94.703 Y55.581 E11.6481
G1 X95.654 Y56.761 E11.67661
G1 X96.55 Y58.561 E11.71443
G1 X96.762 Y60.162 E11.74481
G1 X96.744 Y62.148 E11.78217
G1 X96.534 Y63.551 E11.80886
G1 X95.986 Y64.786 E11.83427
G1 X95.986 Y82.11 E12.16015
G1 X95.604 Y83.968 E12.19583
G1 X94.737 Y85.531 E12.22945
G1 X94.02 Y86.457 E12.25148
G1 X92.809 Y87.433 E12.28074
G1 X91.024 Y88.323 E12.31825
G1 X89.624 Y88.527 E12.34487
G1 X72.958 Y88.571 E12.65837
G1 X71.396 Y88.253 E12.68835
G1 X71.237 Y88.198 E12.69151
G1 X70.841 Y88.35 E12.69949
G1 X69.624 Y88.527 E12.72263
G1 X52.947 Y88.571 E13.03633
G1 X51.089 Y88.189 E13.07201
G1 X49.526 Y87.322 E13.10563
G1 X48.6 Y86.605 E13.12766
G1 X47.624 Y85.394 E13.15692
G1 X46.734 Y83.609 E13.19444
G1 X46.53 Y82.209 E13.22105
G1 X46.486 Y64.935 E13.54599
G1 X45.814 Y63.599 E13.57412
G1 X45.59 Y61.906 E13.60624
G1 X45.57 Y60.054 E13.64108
G1 X45.874 Y58.556 E13.66983
G1 X32.947 Y58.571 E13.913
G1 X31.089 Y58.189 E13.94868
G1 X29.526 Y57.322 E13.9823
G1 X28.6 Y56.605 E14.00433
G1 X27.624 Y55.394 E14.03359
G1 X26.734 Y53.609 E14.07111
G1 X26.53 Y52.209 E14.09772
G1 X26.486 Y34.935 E14.42265
G1 X25.814 Y33.599 E14.45078
G1 X25.59 Y31.906 E14.48291
G1 X25.57 Y30.054 E14.51775
G1 X25.952 Y28.168 E14.55394
G1 X26.819 Y26.61 E14.58748
G1 X27.536 Y25.685 E14.6095
G0 F3600 X27.821 Y25.969
G1 F1800 X28.967 Y25.046 E14.63718
G1 X30.652 Y24.206 E14.67259
G1 X31.99 Y24.011 E14.69803
G1 X50.287 Y23.971 E15.04221
G1 X51.103 Y24.141 E15.05788
G1 X51.99 Y24.011 E15.07475
G1 X70.287 Y23.971 E15.41893
G1 X71.103 Y24.141 E15.4346
G1 X71.99 Y24.011 E15.45147
G1 X90.283 Y23.971 E15.79557
G1 X92.044 Y24.333 E15.82939
G1 X93.605 Y25.205 E15.86302
G1 X94.381 Y25.814 E15.88158
G1 X95.315 Y26.978 E15.90965
G1 X96.162 Y28.678 E15.94538
G1 X96.365 Y30.214 E15.97452
G1 X96.348 Y32.089 E16.00979
G1 X96.146 Y33.439 E16.03547
G1 X95.586 Y34.701 E16.06144
G1 X95.586 Y52.068 E16.38812
G1 X95.224 Y53.829 E16.42194
G1 X94.352 Y55.39 E16.45558
G1 X94.157 Y55.638 E16.46151
G1 X94.412 Y55.853 E16.46778
G1 X95.315 Y56.978 E16.49492
G1 X96.162 Y58.678 E16.53065
G1 X96.365 Y60.214 E16.55979
G1 X96.348 Y62.089 E16.59506
G1 X96.146 Y63.439 E16.62074
G1 X95.586 Y64.701 E16.64671
G1 X95.586 Y82.068 E16.97339
G1 X95.224 Y83.828 E17.00719
G1 X94.387 Y85.337 E17.03965
G1 X93.735 Y86.173 E17.0596
G1 X92.589 Y87.096 E17.08728
G1 X90.904 Y87.936 E17.12269
G1 X89.566 Y88.131 E17.14813
G1 X72.998 Y88.171 E17.45978
G1 X71.476 Y87.861 E17.489
G1 X71.231 Y87.766 E17.49394
G1 X70.783 Y87.954 E17.50308
G1 X69.566 Y88.131 E17.52621
G1 X52.989 Y88.171 E17.83804
G1 X51.229 Y87.809 E17.87184
G1 X49.72 Y86.972 E17.90429
G1 X48.884 Y86.32 E17.92424
G1 X47.961 Y85.174 E17.95192
G1 X47.121 Y83.489 E17.98733
G1 X46.926 Y82.151 E18.01277
G1 X46.886 Y64.84 E18.3384
G1 X46.202 Y63.481 E18.36702
G1 X45.987 Y61.854 E18.39789
G1 X45.97 Y60.092 E18.43103
G1 X46.319 Y58.375 E18.46399
G1 X46.42 Y58.155 E18.46854
G1 X32.989 Y58.171 E18.72119
G1 X31.229 Y57.809 E18.75499
G1 X29.72 Y56.972 E18.78745
G1 X28.884 Y56.32 E18.80739
G1 X27.961 Y55.174 E18.83507
G1 X27.121 Y53.489 E18.87049
G1 X26.926 Y52.151 E18.89592
G1 X26.886 Y34.84 E19.22155
G1 X26.202 Y33.481 E19.25017
G1 X25.987 Y31.854 E19.28104
G1 X25.97 Y30.092 E19.31419
G1 X26.332 Y28.309 E19.34841
G1 X27.169 Y26.804 E19.3808
G1 X27.821 Y25.969 E19.40073
G0 F3600 X28.105 Y26.254
G1 F1800 X29.187 Y25.383 E19.42686
G1 X30.772 Y24.593 E19.46017
G1 X32.048 Y24.407 E19.48443
G1 X50.244 Y24.371 E19.82671
G1 X51.132 Y24.556 E19.84377
G1 X51.269 Y24.521 E19.84643
G1 X52.048 Y24.407 E19.86124
G1 X70.244 Y24.371 E20.20352
G1 X71.132 Y24.556 E20.22058
G1 X71.269 Y24.521 E20.22324
G1 X72.048 Y24.407 E20.23805
G1 X90.241 Y24.371 E20.58027
G1 X91.903 Y24.713 E20.61219
G1 X93.358 Y25.52 E20.64348
G1 X94.099 Y26.102 E20.66121
G1 X94.976 Y27.195 E20.68757
G1 X95.773 Y28.795 E20.72119
G1 X95.968 Y30.267 E20.74912
G1 X95.952 Y32.03 E20.78229
G1 X95.758 Y33.327 E20.80696
G1 X95.271 Y34.424 E20.82953
G1 X95.186 Y34.57 E20.83271
G1 X95.186 Y52.026 E21.16107
G1 X94.844 Y53.688 E21.19299
G1 X94.037 Y55.143 E21.22428
G1 X93.597 Y55.703 E21.23768
G1 X94.1 Y56.103 E21.24977
G1 X94.976 Y57.195 E21.2761
G1 X95.773 Y58.795 E21.30973
G1 X95.968 Y60.267 E21.33766
G1 X95.952 Y62.03 E21.37082
G1 X95.758 Y63.327 E21.39549
G1 X95.271 Y64.424 E21.41807
G1 X95.186 Y64.57 E21.42125
G1 X95.186 Y82.026 E21.7496
G1 X94.844 Y83.688 E21.78152
G1 X94.037 Y85.143 E21.81282
G1 X93.451 Y85.888 E21.83065
G1 X92.369 Y86.759 E21.85678
G1 X90.784 Y87.549 E21.89009
G1 X89.508 Y87.735 E21.91435
G1 X73.038 Y87.771 E22.22416
G1 X71.556 Y87.469 E22.25261
G1 X71.224 Y87.329 E22.25938
G1 X70.725 Y87.558 E22.26971
G1 X69.508 Y87.735 E22.29284
G1 X53.031 Y87.771 E22.60279
G1 X51.369 Y87.429 E22.6347
G1 X49.914 Y86.622 E22.666
G1 X49.169 Y86.036 E22.68383
G1 X48.298 Y84.954 E22.70996
G1 X47.508 Y83.369 E22.74327
G1 X47.322 Y82.093 E22.76753
G1 X47.286 Y64.745 E23.09386
G1 X46.59 Y63.363 E23.12296
G1 X46.384 Y61.802 E23.15258
G1 X46.37 Y60.131 E23.18401
G1 X46.711 Y58.455 E23.21619
G1 X47.097 Y57.754 E23.23124
G1 X33.031 Y57.771 E23.49583
G1 X31.369 Y57.429 E23.52775
G1 X29.914 Y56.622 E23.55904
G1 X29.169 Y56.036 E23.57687
G1 X28.298 Y54.954 E23.603
G1 X27.508 Y53.369 E23.63631
G1 X27.322 Y52.093 E23.66057
G1 X27.286 Y34.745 E23.9869
G1 X26.59 Y33.363 E24.016
G1 X26.384 Y31.802 E24.04562
G1 X26.37 Y30.131 E24.07705
G1 X26.711 Y28.451 E24.1093
G1 X27.519 Y26.999 E24.14056
G1 X28.105 Y26.254 E24.15839
G0 F3600 X28.39 Y26.539
G1 F1800 X29.405 Y25.722 E24.1829
G1 X30.893 Y24.98 E24.21417
G1 X32.106 Y24.803 E24.23723
G1 X50.202 Y24.771 E24.57763
G1 X51.144 Y24.967 E24.59573
G1 X51.327 Y24.917 E24.5993
G1 X52.106 Y24.803 E24.61411
G1 X70.202 Y24.771 E24.9545
G1 X71.144 Y24.967 E24.9726
G1 X71.327 Y24.917 E24.97617
G1 X72.106 Y24.803 E24.99098
G1 X90.199 Y24.771 E25.33132
G1 X91.763 Y25.093 E25.36136
G1 X93.164 Y25.87 E25.39149
G1 X93.814 Y26.387 E25.40711
G1 X94.639 Y27.414 E25.43189
G1 X95.385 Y28.912 E25.46337
G1 X95.571 Y30.319 E25.49007
G1 X95.556 Y31.971 E25.52115
G1 X95.37 Y33.215 E25.54481
G1 X94.905 Y34.262 E25.56636
G1 X94.786 Y34.458 E25.57067
G1 X94.786 Y51.984 E25.90034
G1 X94.464 Y53.548 E25.93038
G1 X93.687 Y54.949 E25.96052
G1 X93.195 Y55.566 E25.97536
G1 X92.973 Y55.757 E25.98087
G1 X93.164 Y55.87 E25.98504
G1 X93.814 Y56.387 E26.00067
G1 X94.639 Y57.414 E26.02545
G1 X95.385 Y58.912 E26.05692
G1 X95.571 Y60.319 E26.08362
G1 X95.556 Y61.971 E26.1147
G1 X95.37 Y63.215 E26.13836
G1 X94.905 Y64.262 E26.15991
G1 X94.786 Y64.458 E26.16422
G1 X94.786 Y81.984 E26.49389
G1 X94.464 Y83.548 E26.52393
G1 X93.687 Y84.949 E26.55407
G1 X93.166 Y85.603 E26.5698
G1 X92.151 Y86.42 E26.5943
G1 X90.663 Y87.162 E26.62558
G1 X89.45 Y87.339 E26.64864
G1 X73.078 Y87.371 E26.95661
G1 X71.636 Y87.077 E26.98429
G1 X71.217 Y86.885 E26.99296
G1 X70.667 Y87.162 E27.00454
G1 X69.45 Y87.339 E27.02768
G1 X53.073 Y87.371 E27.33574
G1 X51.509 Y87.049 E27.36578
G1 X50.108 Y86.272 E27.39591
G1 X49.454 Y85.751 E27.41164
G1 X48.637 Y84.736 E27.43615
G1 X47.895 Y83.248 E27.46743
G1 X47.718 Y82.035 E27.49048
G1 X47.686 Y64.65 E27.81751
G1 X46.978 Y63.245 E27.8471
G1 X46.781 Y61.75 E27.87547
G1 X46.77 Y60.17 E27.90519
G1 X47.091 Y58.593 E27.93546
G1 X47.775 Y57.353 E27.9621
G1 X33.073 Y57.371 E28.23865
G1 X31.509 Y57.049 E28.26869
G1 X30.108 Y56.272 E28.29882
G1 X29.454 Y55.751 E28.31455
G1 X28.637 Y54.736 E28.33906
G1 X27.895 Y53.248 E28.37034
G1 X27.718 Y52.035 E28.3934
G1 X27.686 Y34.65 E28.72042
G1 X26.978 Y33.245 E28.75001
G1 X26.781 Y31.75 E28.77838
G1 X26.77 Y30.17 E28.8081
G1 X27.091 Y28.592 E28.83839
G1 X27.869 Y27.193 E28.8685
G1 X28.39 Y26.539 E28.88423
G0 F3600 X28.674 Y26.825
G1 F1800 X29.625 Y26.059 E28.9072
G1 X31.013 Y25.367 E28.93638
G1 X32.164 Y25.199 E28.95826
G1 X50.16 Y25.171 E29.29677
G1 X51.162 Y25.379 E29.31602
G1 X51.385 Y25.313 E29.3204
G1 X52.164 Y25.199 E29.33521
G1 X70.16 Y25.171 E29.67372
G1 X71.162 Y25.379 E29.69297
G1 X71.385 Y25.313 E29.69735
G1 X72.164 Y25.199 E29.71215
G1 X90.157 Y25.171 E30.05061
G1 X91.624 Y25.473 E30.07879
G1 X92.915 Y26.183 E30.1065
G1 X93.531 Y26.673 E30.12131
G1 X94.3 Y27.631 E30.14442
G1 X94.996 Y29.029 E30.17379
G1 X95.174 Y30.372 E30.19928
G1 X95.156 Y31.966 E30.22926
G1 X94.983 Y33.1 E30.25084
G1 X94.539 Y34.1 E30.27142
G1 X94.386 Y34.343 E30.27682
G1 X94.386 Y51.942 E30.60787
G1 X94.084 Y53.409 E30.63604
G1 X93.374 Y54.7 E30.66376
G1 X92.882 Y55.317 E30.6786
G1 X92.259 Y55.818 E30.69364
G1 X92.915 Y56.183 E30.70776
G1 X93.531 Y56.673 E30.72257
G1 X94.3 Y57.631 E30.74568
G1 X94.996 Y59.029 E30.77505
G1 X95.174 Y60.372 E30.80053
G1 X95.156 Y61.966 E30.83052
G1 X94.983 Y63.1 E30.8521
G1 X94.539 Y64.1 E30.87268
G1 X94.386 Y64.343 E30.87808
G1 X94.386 Y81.942 E31.20913
G1 X94.084 Y83.409 E31.2373
G1 X93.374 Y84.7 E31.26502
G1 X92.882 Y85.317 E31.27986
G1 X91.931 Y86.083 E31.30283
G1 X90.543 Y86.775 E31.33201
G1 X89.392 Y86.943 E31.35389
G1 X73.118 Y86.971 E31.66001
G1 X71.716 Y86.685 E31.68692
G1 X71.215 Y86.439 E31.69742
G1 X70.546 Y86.775 E31.71151
G1 X69.392 Y86.943 E31.73344
G1 X53.115 Y86.971 E32.03962
G1 X51.648 Y86.669 E32.0678
G1 X50.357 Y85.959 E32.09551
G1 X49.74 Y85.467 E32.11035
G1 X48.974 Y84.516 E32.13332
G1 X48.282 Y83.128 E32.1625
G1 X48.114 Y81.977 E32.18438
G1 X48.086 Y64.505 E32.51304
G1 X47.979 Y64.343 E32.51669
G1 X47.366 Y63.127 E32.54231
G1 X47.178 Y61.698 E32.56942
G1 X47.17 Y60.209 E32.59743
G1 X47.471 Y58.731 E32.6258
G1 X48.182 Y57.442 E32.65349
G1 X48.572 Y56.952 E32.66527
G1 X33.115 Y56.971 E32.95603
G1 X31.648 Y56.669 E32.9842
G1 X30.357 Y55.959 E33.01191
G1 X29.74 Y55.467 E33.02676
G1 X28.974 Y54.516 E33.04973
G1 X28.282 Y53.128 E33.0789
G1 X28.114 Y51.977 E33.10078
G1 X28.086 Y34.505 E33.42944
G1 X27.979 Y34.343 E33.43309
G1 X27.366 Y33.127 E33.45871
G1 X27.178 Y31.698 E33.48582
G1 X27.17 Y30.209 E33.51383
G1 X27.471 Y28.731 E33.5422
G1 X28.182 Y27.442 E33.56989
G1 X28.674 Y26.825 E33.58474
G0 F3600 X28.96 Y27.108
G1 F1800 X29.841 Y26.398 E33.60602
G1 X31.133 Y25.754 E33.63318
G1 X32.222 Y25.595 E33.65388
G1 X50.118 Y25.571 E33.99051
G1 X51.183 Y25.792 E34.01097
G1 X51.443 Y25.709 E34.01611
G1 X52.222 Y25.595 E34.03092
G1 X70.118 Y25.571 E34.36755
G1 X71.183 Y25.792 E34.38801
G1 X71.443 Y25.709 E34.39314
G1 X72.222 Y25.595 E34.40795
G1 X90.115 Y25.571 E34.74453
G1 X91.486 Y25.853 E34.77086
G1 X92.666 Y26.496 E34.79614
G1 X93.248 Y26.959 E34.81013
G1 X93.961 Y27.848 E34.83156
G1 X94.608 Y29.146 E34.85885
G1 X94.777 Y30.424 E34.88309
G1 X94.756 Y31.961 E34.91201
G1 X94.596 Y32.985 E34.9315
G1 X94.173 Y33.938 E34.95112
G1 X93.986 Y34.225 E34.95756
G1 X93.986 Y51.9 E35.29004
G1 X93.704 Y53.271 E35.31637
G1 X93.061 Y54.451 E35.34165
G1 X92.596 Y55.034 E35.35567
G1 X91.746 Y55.719 E35.37621
G1 X91.491 Y55.855 E35.38164
G1 X92.666 Y56.496 E35.40682
G1 X93.248 Y56.959 E35.42081
G1 X93.961 Y57.848 E35.44225
G1 X94.608 Y59.146 E35.46953
G1 X94.777 Y60.424 E35.49378
G1 X94.756 Y61.961 E35.52269
G1 X94.596 Y62.985 E35.54219
G1 X94.173 Y63.938 E35.5618
G1 X93.986 Y64.225 E35.56824
G1 X93.986 Y81.9 E35.90072
G1 X93.704 Y83.271 E35.92705
G1 X93.061 Y84.451 E35.95233
G1 X92.596 Y85.034 E35.96636
G1 X91.715 Y85.744 E35.98764
G1 X90.423 Y86.388 E36.01479
G1 X89.334 Y86.547 E36.0355
G1 X73.158 Y86.571 E36.33978
G1 X71.796 Y86.293 E36.36592
